!!!!SEGMENT: pl-cz--iii-454--005_maader-ludwik--litaniae-laurentanae-regina-angelorum.krn
!!!cenid: 17xx:991
!!!COM: Maader, Ludwik
!!!COM-rismid: pe30020328
!!!CDT: <1794->1798
!!!CNT:
!!!OPR: Litaniae Laurentanae
!!!OTL: Regina angelorum
!!!OMV: 005
!!!PDT:
!!!AGN: Sacred; Mass
!!!SMS-siglum: PL-CZ
!!!SMS-shelfmark: III-454
!!!SMS-shelfwork: 001-005 M
!!!SMS-variant:
!!!SMS-altvar:
!!!NIFC-rismid: 300000759
!!!URL-scan: http://repozytorium.nifc.pl/skany/pl-cz-nut--iii-454
!!!ONB-nifc: UWAGA: części Litanii: Kyrie, Sancta Maria, Rosa mystica, Salus infirmorum, Regina angelorum, Agnus Dei
!!!AIN: 1 alto 1 bass 2 oboe 1 organ 1 soprn 1 tenor 2 tromp 2 violn
!!!key: D
**kern	**fba	**kern	**dynam	**kern	**dynam	**kern	**text	**kern	**text	**kern	**text	**kern	**text	**kern	**kern	**kern	**kern
*part11	*	*part10	*part10	*part9	*part9	*part8	*part8	*part7	*part7	*part6	*part6	*part5	*part5	*part4	*part3	*part2	*part1
*staff11	*	*staff10	*	*staff9	*	*staff8	*staff8	*staff7	*staff7	*staff6	*staff6	*staff5	*staff5	*staff4	*staff3	*staff2	*staff1
*	*	*	*	*	*	*IGcoro	*	*IGcoro	*	*IGcoro	*	*IGcoro	*	*I	*	*	*
*IGcont	*	*IGripn	*	*IGripn	*	*IGconc	*	*IGripn	*	*IGripn	*	*IGripn	*	*IGripn	*IGripn	*IGripn	*IGripn
*ICklav	*	*ICstr	*	*ICstr	*	*ICvox	*	*ICvox	*	*ICvox	*	*ICvox	*	*ICbras	*ICbras	*ICww	*ICww
*Iorgan	*	*Ivioln	*	*Ivioln	*	*Ibass	*	*Itenor	*	*Ialto	*	*Isoprn	*	*Itromp	*Itromp	*Ioboe	*Ioboe
*I"Organo.	*	*I"Violino Secondo	*	*I"Violino Primo.	*	*I"Baſso	*	*I"Tenore	*	*I"Alto.	*	*I"Canto.	*	*I"Clarino 2do in D:	*I"Clarino Primo in D.	*I"Oboe Secondo	*I"Oboe Primo
*I'org	*	*I'vl 2	*	*I'vl 1	*	*I'B	*	*I'T	*	*I'A	*	*I'S	*	*I'clno 2 in D	*I'clno 1 in D	*I'ob 2	*I'ob 1
*clefF4	*	*clefG2	*	*clefG2	*	*clefF4	*	*clefC4	*	*clefC3	*	*clefC1	*	*clefG2	*clefG2	*clefG2	*clefG2
*k[f#c#]	*	*k[f#c#]	*	*k[f#c#]	*	*k[f#c#]	*	*k[f#c#]	*	*k[f#c#]	*	*k[f#c#]	*	*k[f#c#]	*k[f#c#]	*k[f#c#]	*k[f#c#]
*D:	*	*D:	*	*D:	*	*D:	*	*D:	*	*D:	*	*D:	*	*D:	*D:	*D:	*D:
*M6/8	*	*M6/8	*	*M6/8	*	*M6/8	*	*M6/8	*	*M6/8	*	*M6/8	*	*M6/8	*M6/8	*M6/8	*M6/8
*2\right	*	*2\right	*	*2\right	*below	*2\right	*	*2\right	*	*2\right	*	*2\right	*	*	*	*	*
!	!	!	!	!	!	!	!	!	!	!	!	!LO:TX:a:B:t=allo Tutti	!	!	!	!	!LO:TX:a:t=Relinqua Tacet.
!LO:TX:a:i:t=allo Tutti:rj	!	!LO:TX:t=allo:rj	!	!LO:TX:t=allo:rj	!	!LO:TX:t=allo	!	!LO:TX:t=allo Tutti.	!	!LO:TX:t=allo	!	!	!	!LO:TX:a:t=Relinqua Tacent	!LO:TX:a:t=Regina Tacet & Relinqua	!LO:TX:a:t=Relinqua Tacent.	!
8r	.	8a\	.	8a/	.	8A\	Re-	8A\	Re-	8a\	Re-	8a\	Re-	8ryy	8ryy	8ryy	8ryy
=1	=1	=1	=1	=1	=1	=1	=1	=1	=1	=1	=1	=1	=1	=1	=1	=1	=1
!	!	!	!	!LO:TX:t=P:problem=mixed beam	!	!	!	!	!	!	!	!	!	!	!	!	!
!	!	!LO:TX:t=P:problem=mixed beam	!	!	!LO:DY:t=for	!	!	!	!	!	!	!	!	!	!	!	!
4D\	.	8.dd\L	.	8.dd\L	f	4d\	-gi-	4d\	-gi-	4dd\	-gi-	4dd\	-gi-	2.ryy	2.ryy	2.ryy	2.ryy
.	.	16d/K	.	16d/K	.	.	.	.	.	.	.	.	.	.	.	.	.
8D\	.	8e/J	.	8e/J	.	8D\	-na	8D/	-na	8d\	-na	8d/	-na	.	.	.	.
8D\L	.	8f#/L	.	8f#/L	.	8F#\L	An-	8F#/L	An-	8.f#\L	An-	8f#/L	An-	.	.	.	.
8D\	.	8e/	.	8e/	.	8E\J	.	8E/J	.	.	.	8e/J	.	.	.	.	.
.	.	.	.	.	.	.	.	.	.	16e\Jk	.	.	.	.	.	.	.
8D\J	.	8d/J	.	8d/J	.	8D\	-ge-	8D/	-ge-	8d\	-ge-	8d/	-ge-	.	.	.	.
=2	=2	=2	=2	=2	=2	=2	=2	=2	=2	=2	=2	=2	=2	=2	=2	=2	=2
4C#/	x 6	8.c#/L	.	8.a/L	.	8.A\L	-lo-	8.A\L	-lo-	8.a\L	-lo-	8.a\L	-lo-	2.ryy	2.ryy	2.ryy	2.ryy
.	.	16d/K	.	16b/K	.	16B\K	.	16B\K	.	16b\K	.	16b\K	.	.	.	.	.
8BB/	x 6\	8B/J	.	8g#X/J	.	8G#X\J	.	8G#X\J	.	8g#X\J	.	8g#X\J	.	.	.	.	.
!	!	!	!	!	!LO:DY:t=pia	!	!	!LO:TX:a:i:t=Solo	!	!	!	!	!	!	!	!	!
4AA/	.	4c#/	.	4a/	p	4A\	-rum	4A\	-rum	4a\	-rum	4a\	-rum	.	.	.	.
!	!	!	!LO:DY:t=po.	!	!	!	!	!	!	!	!	!	!	!	!	!	!
8r	.	8a/	p	8aa\	.	8r	.	8a\	O-	8r	.	8r	.	.	.	.	.
=3	=3	=3	=3	=3	=3	=3	=3	=3	=3	=3	=3	=3	=3	=3	=3	=3	=3
!LO:TX:a:i:t=Solo.	!	!	!	!	!	!	!	!	!	!	!	!	!	!	!	!	!
8AA/L	.	(16e/LL	.	(16gg\LL	.	1.r	.	16g\LL	.	1.r	.	1.r	.	2.ryy	2.ryy	2.ryy	2.ryy
.	.	16a/)	.	16ff#\	.	.	.	16f#\	.	.	.	.	.	.	.	.	.
8AA/	.	(16e/	.	16ee\	.	.	.	16e\	.	.	.	.	.	.	.	.	.
.	.	16a/)	.	16dd\	.	.	.	16d\	.	.	.	.	.	.	.	.	.
8AA/J	.	(16e/	.	16cc#\)	.	.	.	16c#\	.	.	.	.	.	.	.	.	.
.	.	16a/JJ)	.	16b\JJ	.	.	.	16B\JJ	.	.	.	.	.	.	.	.	.
!	!	!LO:LB:g=original	!	!	!	!	!	!	!	!	!	!	!	!	!	!	!
16AA/LL	.	(16e/LL	.	4a\	.	.	.	4A\	-ra	.	.	.	.	.	.	.	.
16BB/	.	16a/)	.	.	.	.	.	.	.	.	.	.	.	.	.	.	.
16C#/	.	(16e/	.	.	.	.	.	.	.	.	.	.	.	.	.	.	.
16D/	.	16a/)	.	.	.	.	.	.	.	.	.	.	.	.	.	.	.
16E/	.	(16e/	.	8gg\	.	.	.	8g\	pro	.	.	.	.	.	.	.	.
16C#/JJ	.	16a/JJ)	.	.	.	.	.	.	.	.	.	.	.	.	.	.	.
=4	=4	=4	=4	=4	=4	=4	=4	=4	=4	=4	=4	=4	=4	=4	=4	=4	=4
!LO:LB:g=original	!	!	!	!LO:LB:g=original	!	!	!	!LO:LB:g=original	!	!	!	!	!	!	!	!	!
8D\L	.	8d/L	.	8ff#\L	.	.	.	8f#\L	no-	.	.	.	.	2.ryy	2.ryy	2.ryy	2.ryy
8F#\	x 6	16f#/L	.	16dd\L	.	.	.	16d\L	.	.	.	.	.	.	.	.	.
.	.	(16g/	.	(16ee\	.	.	.	16e\	.	.	.	.	.	.	.	.	.
8A\J	.	16a/	.	16ff#\)	.	.	.	16f#\	.	.	.	.	.	.	.	.	.
.	.	16g/JJ)	.	16ee\JJ	.	.	.	16e\JJ	.	.	.	.	.	.	.	.	.
4D\	.	4f#/	.	4dd\	.	.	.	4d\	-bis	.	.	.	.	.	.	.	.
8r	.	8a/	.	8aa\	.	.	.	8r	.	.	.	.	.	.	.	.	.
=5	=5	=5	=5	=5	=5	=5	=5	=5	=5	=5	=5	=5	=5	=5	=5	=5	=5
8AA/L	.	16e/LL	.	16gg\LL	.	2.r	.	2.r	.	2.r	.	2.r	.	2.ryy	2.ryy	2.ryy	2.ryy
.	.	16a/	.	(16ff#\	.	.	.	.	.	.	.	.	.	.	.	.	.
8AA/	.	16e/	.	16ee\	.	.	.	.	.	.	.	.	.	.	.	.	.
.	.	16a/	.	16dd\	.	.	.	.	.	.	.	.	.	.	.	.	.
8AA/J	.	16e/	.	16cc#\)	.	.	.	.	.	.	.	.	.	.	.	.	.
.	.	16a/JJ	.	16b\JJ	.	.	.	.	.	.	.	.	.	.	.	.	.
*	*	*tremolo	*	*	*	*	*	*	*	*	*	*	*	*	*	*	*
!	!	!LO:TX:t=P:N:vis=2.):problem=nuty tremola puste w środku (LO	!	!	!	!	!	!	!	!	!	!	!	!	!	!	!
16AA/LL	.	16e/LL	.	4a/	.	.	.	.	.	.	.	.	.	.	.	.	.
16BB/	.	16a/	.	.	.	.	.	.	.	.	.	.	.	.	.	.	.
16C#/	.	16e/	.	.	.	.	.	.	.	.	.	.	.	.	.	.	.
16D/	.	16a/	.	.	.	.	.	.	.	.	.	.	.	.	.	.	.
16E/	.	16e/	.	8g/	.	.	.	.	.	.	.	.	.	.	.	.	.
16C#/JJ	.	16a/JJ	.	.	.	.	.	.	.	.	.	.	.	.	.	.	.
*	*	*Xtremolo	*	*	*	*	*	*	*	*	*	*	*	*	*	*	*
=6	=6	=6	=6	=6	=6	=6	=6	=6	=6	=6	=6	=6	=6	=6	=6	=6	=6
!	!	!	!	!	!LO:DY:t=for	!	!	!	!	!	!	!	!	!	!	!	!
8D\L	.	8f#/L	.	8f#/L	f	4r	.	4r	.	4r	.	4r	.	2.ryy	2.ryy	2.ryy	2.ryy
8F#\	.	16f#/L	.	16d/L	.	.	.	.	.	.	.	.	.	.	.	.	.
.	.	(16g/	.	16e/	.	.	.	.	.	.	.	.	.	.	.	.	.
8A\J	.	16a/	.	16f#/	.	8r	.	8r	.	8r	.	8r	.	.	.	.	.
.	.	16g/JJ)	.	16e/JJ	.	.	.	.	.	.	.	.	.	.	.	.	.
4D\	.	4f#/	.	4d/	.	4r	.	4r	.	8r	.	4r	.	.	.	.	.
.	.	.	.	.	.	.	.	.	.	8r	.	.	.	.	.	.	.
!	!	!	!	!	!	!	!	!LO:TX:a:i:t=Tutti	!	!	!	!	!	!	!	!	!
8r	.	8d/	.	8d/	.	8D\	o-	8d\	O-	8f#\	O-	8a\	O-	.	.	.	.
=7	=7	=7	=7	=7	=7	=7	=7	=7	=7	=7	=7	=7	=7	=7	=7	=7	=7
!	!	!	!	!	!LO:DY:t=pia.:rj	!LO:LB:g=original	!	!	!	!	!	!	!	!	!	!	!
4D\	.	4G/	.	8B/L	p	4.D\	-ra	4.d\	-ra	4.g\	-ra	4.b\	-ra	2.ryy	2.ryy	2.ryy	2.ryy
.	.	.	.	8G/	.	.	.	.	.	.	.	.	.	.	.	.	.
8r	.	8d/	.	8d/J	.	.	.	.	.	.	.	.	.	.	.	.	.
4D\	.	4A/	.	4A/	.	4.D\	pro	4.d\	pro	4.f#\	pro	4.a\	pro	.	.	.	.
8r	.	8d/	.	8d/	.	.	.	.	.	.	.	.	.	.	.	.	.
=8	=8	=8	=8	=8	=8	=8	=8	=8	=8	=8	=8	=8	=8	=8	=8	=8	=8
!	!	!LO:LB:g=original	!	!	!	!	!	!	!	!LO:LB:g=original	!	!LO:LB:g=original	!	!	!	!	!
4D\	.	4G/	.	8B/L	.	4.D\	no-	4.d\	no-	4.g\	no-	4.b\	no-	2.ryy	2.ryy	2.ryy	2.ryy
.	.	.	.	8G/	.	.	.	.	.	.	.	.	.	.	.	.	.
8r	.	8d/	.	8d/J	.	.	.	.	.	.	.	.	.	.	.	.	.
4D\	.	4A/	.	4A/	.	4D\	-bis	4d\	-bis	4.f#\	-bis	4a\	-bis	.	.	.	.
8r	.	8d/	.	8d/	.	8r	.	8r	.	.	.	8dd\	O-	.	.	.	.
=9	=9	=9	=9	=9	=9	=9	=9	=9	=9	=9	=9	=9	=9	=9	=9	=9	=9
!	!	!	!	!LO:LB:g=original	!	!	!	!	!	!	!	!	!	!	!	!	!
4G\	.	8G/L	.	8B/L	.	4.G\	o-	4.B\	O-	4g\	O-	4b\	-ra	2.ryy	2.ryy	2.ryy	2.ryy
.	.	8B/	.	8g/	.	.	.	.	.	.	.	.	.	.	.	.	.
*	*	*	*	*	*	*	*	*	*	*	*	*	*ij	*	*	*	*
!LO:TX:a:i:t=Tutti	!	!	!	!	!	!	!	!	!	!	!	!	!	!	!	!	!
8r	.	8A/J	.	8f#/J	.	.	.	.	.	8f#\	-ra	8a\	o	.	.	.	.
*	*	*	*	*	*	*	*	*	*	*	*ij	*	*	*	*	*	*
4G\	.	8G/L	.	8e/L	.	4G\	-ra	4B\	-ra	4b\	o-	4gg\	ra	.	.	.	.
*	*	*	*	*	*	*	*	*	*	*	*	*	*Xij	*	*	*	*
.	.	8g/	.	8b/	.	.	.	.	.	.	.	.	.	.	.	.	.
8r	.	8f#/J	.	8a/J	.	8G\	pro	8B\	pro	8a\	-ra	8ff#\	pro	.	.	.	.
*	*	*	*	*	*	*	*	*	*	*	*Xij	*	*	*	*	*	*
=10	=10	=10	=10	=10	=10	=10	=10	=10	=10	=10	=10	=10	=10	=10	=10	=10	=10
!LO:LB:g=original	!	!	!	!	!	!	!	!	!	!	!	!	!	!	!	!	!
16G\LL	.	16g/LL	.	16g/LL	.	16G\LL	no-	16A/LL	no-	16g\LL	pro	16gg\LL	no-	2.ryy	2.ryy	2.ryy	2.ryy
16F#\	.	16f#/	.	16f#/	.	16F#\	.	16G/	.	16f#\JJ	.	16ff#\	.	.	.	.	.
16G\	.	16g/	.	16g/	.	16G\	.	16A/	.	16g\LL	no-	16gg\	.	.	.	.	.
16F#\	.	16f#/	.	16f#/	.	16F#\	.	16G/	.	16f#\	.	16ff#\	.	.	.	.	.
16E\	.	16e/	.	16e/	.	16E\	.	16F#/	.	16e\	.	16ee\	.	.	.	.	.
16D\JJ	.	16d/JJ	.	16d/JJ	.	16D\JJ	.	16E/JJ	.	16d\JJ	.	16dd\JJ	.	.	.	.	.
!	!	!	!	!	!	!	!	!LO:LB:g=original	!	!	!	!	!	!	!	!	!
4A\	.	4c#/ 4a	.	4a/	.	4A\	-bis	4A/	-bis	4a\	-bis	4a\	-bis	.	.	.	.
8r	.	8r	.	8r	.	8r	.	8r	.	8r	.	8r	.	.	.	.	.
=11	=11	=11	=11	=11	=11	=11	=11	=11	=11	=11	=11	=11	=11	=11	=11	=11	=11
!LO:TX:a:i:t=Solo	!	!	!LO:DY:t=for	!	!LO:DY:t=for	!	!	!	!	!	!	!	!	!	!	!	!
16A\LL	.	8.cc#\L	f	8.ee\L	f	2.r	.	2.r	.	2.r	.	2.r	.	2.ryy	2.ryy	2.ryy	2.ryy
16G#X\	.	.	.	.	.	.	.	.	.	.	.	.	.	.	.	.	.
16A\	.	.	.	.	.	.	.	.	.	.	.	.	.	.	.	.	.
16B\	.	16dd\K	.	16ff#\K	.	.	.	.	.	.	.	.	.	.	.	.	.
16c#\	.	8cc#\J	.	8ee\J	.	.	.	.	.	.	.	.	.	.	.	.	.
16A\JJ	.	.	.	.	.	.	.	.	.	.	.	.	.	.	.	.	.
!	!	!LO:TX:t=P:problem=mixed beam	!	!LO:TX:t=P:problem=mixed beam	!	!	!	!	!	!	!	!	!	!	!	!	!
16E\LL	.	8aa\L	.	8aa\L	.	.	.	.	.	.	.	.	.	.	.	.	.
16D\	.	.	.	.	.	.	.	.	.	.	.	.	.	.	.	.	.
16C#\	.	8c#/	.	8a/	.	.	.	.	.	.	.	.	.	.	.	.	.
16D\	.	.	.	.	.	.	.	.	.	.	.	.	.	.	.	.	.
16E\	.	8c#/J	.	8a/J	.	.	.	.	.	.	.	.	.	.	.	.	.
16C#\JJ	.	.	.	.	.	.	.	.	.	.	.	.	.	.	.	.	.
!	!	!	!	!	!	!	!	!LO:TX:b:i:t=V.S&colon;	!	!	!	!	!	!	!	!	!
=12	=12	=12	=12	=12	=12	=12	=12	=12	=12	=12	=12	=12	=12	=12	=12	=12	=12
!LO:TX:a:i:t=Tutti	!	!	!	!	!	!	!	!LO:PB:g=original	!	!	!	!	!	!	!	!	!
16D\LL	.	8.dd\L	.	8.ff#\L	.	16D\LL	O-	8.d\	O-	16f#\LL	O-	8.ff#\	O-	2.ryy	2.ryy	2.ryy	2.ryy
16C#\	.	.	.	.	.	16C#\	.	.	.	16e\	.	.	.	.	.	.	.
16D\	.	.	.	.	.	16D\	.	.	.	16f#\	.	.	.	.	.	.	.
16E\	.	16cc#\K	.	16ee\K	.	16E\	.	16c#\	-ra	16g#X\	.	16ee\	-ra	.	.	.	.
16F#\	.	8b\J	.	8dd\J	.	16F#\	.	8B\	pro	16a\	.	8dd\	pro	.	.	.	.
16G#X\JJ	.	.	.	.	.	16G#X\JJ	.	.	.	16b\JJ	.	.	.	.	.	.	.
16A\LL	.	4a\	.	4cc#\	.	4A\	-ra	4A\	no-	4a\	-ra	4cc#\	no-	.	.	.	.
16G#\	.	.	.	.	.	.	.	.	.	.	.	.	.	.	.	.	.
16A\	.	.	.	.	.	.	.	.	.	.	.	.	.	.	.	.	.
16E\	.	.	.	.	.	.	.	.	.	.	.	.	.	.	.	.	.
16C#\	.	8e/	.	8cc#\	.	8r	.	8e\	-bis	8r	.	8cc#\	-bis	.	.	.	.
16AA\JJ	.	.	.	.	.	.	.	.	.	.	.	.	.	.	.	.	.
=13	=13	=13	=13	=13	=13	=13	=13	=13	=13	=13	=13	=13	=13	=13	=13	=13	=13
!	!	!LO:LB:g=original	!	!LO:TX:t=P:problem=mixed beam	!	!LO:LB:g=original	!	!	!	!	!	!LO:LB:g=original	!	!	!	!	!
4D\	.	8d/L	.	8f#/L	.	8D\	o-	8d\L	pro	8.d\	o-	8.a\	o-	2.ryy	2.ryy	2.ryy	2.ryy
.	.	8f#/	.	8dd\	.	8D\	-ra	8f#\	.	.	.	.	.	.	.	.	.
.	.	.	.	.	.	.	.	.	.	16f#\	-ra	16dd\	-ra	.	.	.	.
8r	.	8e/J	.	8cc#\J	.	8D\	pro	8e\J	.	8e\	pro	8cc#\	pro	.	.	.	.
!	!	!	!	!	!	!	!	!	!	!LO:LB:g=original	!	!	!	!	!	!	!
8E\L	5 #	8d/L	.	8b\L	.	4.E\	no-	4.e\	no-	8d\L	no-	8b\L	no-	.	.	.	.
8E\	6 4	8c#/	.	8a\	.	.	.	.	.	8c#\	.	8a\	.	.	.	.	.
8E\J	5 3	8B/J	.	8g#X\J	.	.	.	.	.	8B\J	.	8g#X\J	.	.	.	.	.
=14	=14	=14	=14	=14	=14	=14	=14	=14	=14	=14	=14	=14	=14	=14	=14	=14	=14
!LO:TX:t=P:problem=mixed beam	!	!	!	!	!	!	!	!	!	!	!	!	!	!	!	!	!
!LO:LB:g=original	!	!	!	!	!	!	!	!	!	!	!	!	!	!	!	!	!
8A\L	.	8c#/L	.	8a/L	.	4AA/	-bis	4e\	-bis	4c#\	-bis	4a\	-bis	2.ryy	2.ryy	2.ryy	2.ryy
16C#/L	.	8e/	.	16c#/L	.	.	.	.	.	.	.	.	.	.	.	.	.
16D/	.	.	.	16d/	.	.	.	.	.	.	.	.	.	.	.	.	.
16E/	.	8c#/J	.	16e/	.	8r	.	8r	.	8r	.	8r	.	.	.	.	.
16C#/JJ	.	.	.	16c#/JJ	.	.	.	.	.	.	.	.	.	.	.	.	.
!	!	!	!	!	!	!	!	!LO:TX:a:i:t=Solo	!	!	!	!	!	!	!	!	!
4AA/	.	4A/	.	4A/	.	4r	.	4r	.	4r	.	4r	.	.	.	.	.
!LO:TX:a:i:t=Solo	!	!	!	!	!	!	!	!	!	!LO:TX:a:i:t=Solo	!	!	!	!	!	!	!
8r	.	8r	.	8r	.	8r	.	8a\	Re-	8f#\	Re-	8r	.	.	.	.	.
=15	=15	=15	=15	=15	=15	=15	=15	=15	=15	=15	=15	=15	=15	=15	=15	=15	=15
!	!	!	!	!LO:LB:g=original	!	!	!	!	!	!	!	!	!	!	!	!	!
4BB/	x #	4B/	.	4B/	.	0.r	.	8.a\L	-gi-	8f#\L	-gi-	0.r	.	2.ryy	2.ryy	2.ryy	2.ryy
.	.	.	.	.	.	.	.	.	.	8e\J	.	.	.	.	.	.	.
.	.	.	.	.	.	.	.	16g\Jk	.	.	.	.	.	.	.	.	.
8r	.	8r	.	8r	.	.	.	8f#\	-na	8d#X\	-na	.	.	.	.	.	.
!	!	!	!	!	!LO:DY:t=pia&colon;	!	!	!	!	!	!	!	!	!	!	!	!
4E\	x #	4e/	.	4e/	p	.	.	8g\L	An-	8e\L	An-	.	.	.	.	.	.
.	.	.	.	.	.	.	.	8f#\J	.	8d#\J	.	.	.	.	.	.	.
8ryy	.	8r	.	8r	.	.	.	8g\	-ge-	8e\	-ge-	.	.	.	.	.	.
=16	=16	=16	=16	=16	=16	=16	=16	=16	=16	=16	=16	=16	=16	=16	=16	=16	=16
4BB/	x 7	4B/	.	16B/LL	.	.	.	8f#\L	-lo-	8a\L	-lo-	.	.	2.ryy	2.ryy	2.ryy	2.ryy
.	.	.	.	16c#/	.	.	.	.	.	.	.	.	.	.	.	.	.
.	.	.	.	16d#X/	.	.	.	8e\	.	8g\	.	.	.	.	.	.	.
.	.	.	.	16e/	.	.	.	.	.	.	.	.	.	.	.	.	.
8r	.	8r	.	16f#/	.	.	.	8d#X\J	.	8f#\J	.	.	.	.	.	.	.
.	.	.	.	16B/JJ	.	.	.	.	.	.	.	.	.	.	.	.	.
4E\	x #	4e/	.	4e/	.	.	.	4e\	-rum	4g\	-rum	.	.	.	.	.	.
8r	.	8r	.	8r	.	.	.	8g\	Re-	8e\	Re-	.	.	.	.	.	.
=17	=17	=17	=17	=17	=17	=17	=17	=17	=17	=17	=17	=17	=17	=17	=17	=17	=17
!	!	!	!	!	!	!	!	!LO:LB:g=original	!	!	!	!	!	!	!	!	!
4AA/	x 7	4A/	.	4A/	.	.	.	8.g\L	-gi-	8e\L	-gi-	.	.	2.ryy	2.ryy	2.ryy	2.ryy
.	.	.	.	.	.	.	.	.	.	8d\J	.	.	.	.	.	.	.
.	.	.	.	.	.	.	.	16f#\Jk	.	.	.	.	.	.	.	.	.
8r	.	8r	.	8r	.	.	.	8e\	-na	8c#\	-na	.	.	.	.	.	.
4D\	.	4d/	.	4d/	.	.	.	4f#\	An-	8c#\L	An-	.	.	.	.	.	.
.	.	.	.	.	.	.	.	.	.	8d\J	.	.	.	.	.	.	.
8r	.	8r	.	8r	.	.	.	8d\	-ge-	8f#\	-ge-	.	.	.	.	.	.
=18	=18	=18	=18	=18	=18	=18	=18	=18	=18	=18	=18	=18	=18	=18	=18	=18	=18
!	!	!	!	!	!	!	!	!	!	!LO:LB:g=original	!	!	!	!	!	!	!
4AA/	x 7	4A/	.	16A/LL	.	.	.	8.e\L	-lo-	8g\L	-lo-	.	.	2.ryy	2.ryy	2.ryy	2.ryy
.	.	.	.	16B/	.	.	.	.	.	.	.	.	.	.	.	.	.
.	.	.	.	16c#/	.	.	.	.	.	8f#\	.	.	.	.	.	.	.
.	.	.	.	16d/	.	.	.	16d\K	.	.	.	.	.	.	.	.	.
8r	.	8r	.	16e/	.	.	.	8c#\J	.	8e\J	.	.	.	.	.	.	.
.	.	.	.	16A/JJ	.	.	.	.	.	.	.	.	.	.	.	.	.
!	!	!	!	!	!LO:DY:t=for	!	!	!	!	!	!	!	!	!	!	!	!
4D\	.	8d/L	.	4d/	f	.	.	4d\	-rum	4f#\	-rum,	.	.	.	.	.	.
.	.	8d/	.	.	.	.	.	.	.	.	.	.	.	.	.	.	.
8r	.	8a/J	.	8aa\	.	.	.	8r	.	8r	.	.	.	.	.	.	.
=19	=19	=19	=19	=19	=19	=19	=19	=19	=19	=19	=19	=19	=19	=19	=19	=19	=19
!LO:TX:a:i:t=Tutti	!	!LO:LB:g=original	!	!	!	!	!	!	!	!	!	!	!	!	!	!	!
16AA/LL	.	16e/LL	.	4a\	.	16AA/LL	o-	4a\	O-	4.a\	O-	(>4cc#\	O-	2.ryy	2.ryy	2.ryy	2.ryy
16BB/	.	16a/	.	.	.	16BB/	.	.	.	.	.	.	.	.	.	.	.
16C#/	.	16e/	.	.	.	16C#/	.	.	.	.	.	.	.	.	.	.	.
16D/	.	16a/	.	.	.	16D/	.	.	.	.	.	.	.	.	.	.	.
16E/	.	16e/	.	8gg\	.	16E/	.	8g\	.	.	.	8ee\)	.	.	.	.	.
16C#/JJ	.	16a/JJ	.	.	.	16C#/JJ	.	.	.	.	.	.	.	.	.	.	.
4D\	.	16f#/LL	.	16ff#\LL	.	4D\	-ra	4f#\	-ra	8a\	-ra	4dd\	-ra	.	.	.	.
.	.	16a/	.	16aa\	.	.	.	.	.	.	.	.	.	.	.	.	.
.	.	16f#/	.	16gg\	.	.	.	.	.	8r	.	.	.	.	.	.	.
.	.	16a/	.	16ff#\	.	.	.	.	.	.	.	.	.	.	.	.	.
8r	.	16f#/	.	16ee\	.	8r	.	8r	.	8r	.	8r	.	.	.	.	.
.	.	16a/JJ	.	16dd\JJ	.	.	.	.	.	.	.	.	.	.	.	.	.
=20	=20	=20	=20	=20	=20	=20	=20	=20	=20	=20	=20	=20	=20	=20	=20	=20	=20
*	*	*	*	*	*	*	*	*	*ij	*	*	*	*	*	*	*	*
!LO:LB:g=original	!	!	!	!	!	!	!	!	!	!	!	!	!	!	!	!	!
16AA/LL	.	16e/LL	.	4a/	.	16AA/LL	O-	4a\	O-	4.a\	O-	(4cc#\	o-	2.ryy	2.ryy	2.ryy	2.ryy
16BB/	.	16a/	.	.	.	16BB/	.	.	.	.	.	.	.	.	.	.	.
16C#/	.	16e/	.	.	.	16C#/	.	.	.	.	.	.	.	.	.	.	.
16D/	.	16a/	.	.	.	16D/	.	.	.	.	.	.	.	.	.	.	.
16E/	.	16e/	.	8gg\	.	16E/	.	8g\	.	.	.	8ee\)	.	.	.	.	.
16C#/JJ	.	16a/JJ	.	.	.	16C#/JJ	.	.	.	.	.	.	.	.	.	.	.
4D\	.	4d/	.	4ff#\	.	4D\	-ra	8f#\	-ra	8a\	-ra	8dd\	-ra	.	.	.	.
.	.	.	.	.	.	.	.	8r	.	8r	.	8r	.	.	.	.	.
*	*	*	*	*	*	*	*	*	*Xij	*	*ij	*	*ij	*	*	*	*
8r	.	8d/	.	8dd\	.	8r	.	8B\	o-	8d\	o-	8dd\	o-	.	.	.	.
=21	=21	=21	=21	=21	=21	=21	=21	=21	=21	=21	=21	=21	=21	=21	=21	=21	=21
!	!	!	!	!LO:LB:g=original	!	!LO:LB:g=original	!	!	!	!	!	!	!	!	!	!	!
4G\	.	4.B/	.	8.b\L	.	4G\	O-	8B\	-ra	8g\	-ra	8b\	-ra	2.ryy	2.ryy	2.ryy	2.ryy
*	*	*	*	*	*	*	*	*	*ij	*	*	*	*Xij	*	*	*	*
.	.	.	.	.	.	.	.	8r	.	8r	.	8r	.	.	.	.	.
.	.	.	.	16g\K	.	.	.	.	.	.	.	.	.	.	.	.	.
8r	.	.	.	8dd\J	.	8r	.	8A\	o-	8d\	o-	8dd\	o-	.	.	.	.
!	!	!	!	!	!	!	!	!	!	!	!	!LO:LB:g=original	!	!	!	!	!
4F#\	x 6	4.A/	.	8.a\L	.	4F#\	-ra	8A\	-ra	8a\	-ra	8a\	-ra	.	.	.	.
*	*	*	*	*	*	*	*	*	*Xij	*	*	*	*	*	*	*	*
.	.	.	.	.	.	.	.	8r	.	8r	.	8r	.	.	.	.	.
.	.	.	.	16f#\K	.	.	.	.	.	.	.	.	.	.	.	.	.
8r	.	.	.	8dd\J	.	8r	.	8B\	o-	8d\	o-	8dd\	o-	.	.	.	.
=22	=22	=22	=22	=22	=22	=22	=22	=22	=22	=22	=22	=22	=22	=22	=22	=22	=22
!	!	!	!	!	!	!	!	!LO:LB:g=original	!	!	!	!	!	!	!	!	!
4G\	.	4.B/	.	8.b\L	.	4G\	o-	8B\	-ra	8g\	-ra	8b\	-ra	2.ryy	2.ryy	2.ryy	2.ryy
.	.	.	.	.	.	.	.	8r	.	8r	.	8r	.	.	.	.	.
.	.	.	.	16g\K	.	.	.	.	.	.	.	.	.	.	.	.	.
*	*	*	*	*	*	*	*	*	*	*	*	*	*ij	*	*	*	*
8r	.	.	.	8dd\J	.	8r	.	8A\	o-	8d\	o-	8dd\	o-	.	.	.	.
4F#\	x 6	4.A/	.	4a\	.	4F#\	-ra	8A\	-ra	8a\	-ra	8a\	-ra	.	.	.	.
*	*	*	*	*	*	*	*	*	*	*	*Xij	*	*Xij	*	*	*	*
.	.	.	.	.	.	.	.	8r	.	8r	.	8r	.	.	.	.	.
8r	.	.	.	8dd\	.	8r	.	8r	.	8r	.	8dd\	o-	.	.	.	.
=23	=23	=23	=23	=23	=23	=23	=23	=23	=23	=23	=23	=23	=23	=23	=23	=23	=23
!	!	!	!	!	!	!	!	!	!	!LO:LB:g=original	!	!	!	!	!	!	!
8G\L	.	8.g/L	.	8.b\L	.	8G\	O-	8B\	o-	8.g\	O-	8.b\L	-ra	2.ryy	2.ryy	2.ryy	2.ryy
8G\	.	.	.	.	.	8G\	-ra	8B\	-ra	.	.	.	.	.	.	.	.
.	.	16b/K	.	16gg\K	.	.	.	.	.	16b\	-ra	16gg\Jk	.	.	.	.	.
8G\J	.	8a/J	.	8ff#\J	.	8G\	pro	8B\	pro	8a\	pro	8ff#\	pro	.	.	.	.
8A\L	x 7	8g/L	.	8ee\L	.	(4A\	no-	4A\	no-	8g\L	no-	8ee\L	no-	.	.	.	.
8A\	6 4	8f#/	.	8dd\	.	.	.	.	.	8f#\J	.	8dd\	.	.	.	.	.
8A\J	5 3	8e/J	.	8cc#\J	.	8AA/)	.	8A\	-bis	8e\	-bis	8cc#\J	.	.	.	.	.
=24	=24	=24	=24	=24	=24	=24	=24	=24	=24	=24	=24	=24	=24	=24	=24	=24	=24
!	!	!LO:LB:g=original	!	!	!	!	!	!	!	!	!	!	!	!	!	!	!
!	!	!LO:TX:t=P:problem=mixed beam	!	!	!	!	!	!LO:SIC:v:s=8A\	!	!	!	!	!	!	!	!	!
4D\	.	8.a/L	.	8.dd\L	.	4D\	-bis	8B\	O-	8.f#\	O-	8.dd\	-bis	2.ryy	2.ryy	2.ryy	2.ryy
!	!	!	!	!	!	!	!	!LO:SIC:v:s=8A\	!	!	!	!	!	!	!	!	!
.	.	.	.	.	.	.	.	8B\	-ra	.	.	.	.	.	.	.	.
.	.	16aa\K	.	16bb\K	.	.	.	.	.	16b\	-ra	16gg\	O-	.	.	.	.
!	!	!	!	!	!	!	!	!LO:SIC:v:s=8A\	!	!	!	!	!	!	!	!	!
8r	.	8ff#\J	.	8aa\J	.	8r	.	8B\	pro	8a\	pro	8ff#\	-ra	.	.	.	.
8G\L	.	(8ee\L	.	8gg\L	.	8G\	pro	4A\	no-	8g\L	no-	8ee\	pro	.	.	.	.
8E\	.	8dd\)	.	8ff#\	.	8E\L	no-	.	.	8f#\J	.	8dd\L	no-	.	.	.	.
8A\J	.	8cc#|\J	.	8ee\J	.	8A\J	.	8A\	-bis	8e\	-bis	8cc#\J	.	.	.	.	.
=25	=25	=25	=25	=25	=25	=25	=25	=25	=25	=25	=25	=25	=25	=25	=25	=25	=25
!	!	!	!	!	!	!	!	!LO:SIC:v:s=8A\	!	!	!	!	!	!	!	!	!
4D\	.	8.dd\L	.	8.ff#\L	.	8D\	-bis	8B\	O-	8.f#\	O-	8.dd\	-bis	2.ryy	2.ryy	2.ryy	2.ryy
!	!	!	!	!	!	!	!	!LO:SIC:v:s=8A\	!	!	!	!	!	!	!	!	!
.	.	.	.	.	.	4r	.	8B\	-ra	.	.	.	.	.	.	.	.
.	.	16b\K	.	16gg\K	.	.	.	.	.	16b\	-ra	16gg\	o-	.	.	.	.
!	!	!	!	!	!	!	!	!LO:SIC:v:s=8A\	!	!	!	!	!	!	!	!	!
8r	.	8a\J	.	8ff#\J	.	.	.	8B\	pro	8a\	pro	8ff#\	-ra	.	.	.	.
.	.	.	.	.	.	.	.	.	.	8qqa/	.	.	.	.	.	.	.
!	!	!	!	!	!	!	!	!	!	!	!	!LO:LB:g=original	!	!	!	!	!
4G\	x 6	8g/L	.	8ee\L	.	8G\	pro	4.A\	no-	8g\L	no-	8ee\	pro	.	.	.	.
.	.	8f#/	.	8dd\	.	8E\L	no-	.	.	8f#\	.	8dd\L	no-	.	.	.	.
8A\	x 43	8e/J	.	8cc#\J	.	8A\J	.	.	.	8e\J	.	8cc#\J	.	.	.	.	.
=26	=26	=26	=26	=26	=26	=26	=26	=26	=26	=26	=26	=26	=26	=26	=26	=26	=26
!	!	!	!	!	!	!	!	!LO:LB:g=original	!	!	!	!	!	!	!	!	!
!LO:LB:g=original	!	!	!	!LO:TX:t=P:problem=mixed beam	!	!LO:LB:g=original	!	!LO:SIC:v:s=4A\	!	!	!	!	!	!	!	!	!
8D\L	.	8f#/L	.	8dd\L	.	4D\	-bis,	4B\	-bis	4f#\	-bis	4dd\	-bis	2.ryy	2.ryy	2.ryy	2.ryy
8F#\	x 6	8f#/	.	8d/	.	.	.	.	.	.	.	.	.	.	.	.	.
8A\J	.	8f#/J	.	8d/J	.	8r	.	8r	.	8r	.	8r	.	.	.	.	.
4D\	.	4f#/	.	4d/	.	4r	.	4r	.	4r	.	4r	.	.	.	.	.
!	!	!	!	!	!LO:DY:t=for.	!	!	!	!	!	!	!	!	!	!	!	!
8r	.	8a/	.	8a/	f	8A\	Re-	8A\	Re-	8a\	Re-	8a\	Re-	.	.	.	.
=27	=27	=27	=27	=27	=27	=27	=27	=27	=27	=27	=27	=27	=27	=27	=27	=27	=27
!LO:TX:t=P:Tutti=T&colon;:problem	!	!	!	!LO:LB:g=original	!	!	!	!	!	!	!	!	!	!	!	!	!
!LO:TX:a:i:t=T&colon;	!	!LO:TX:t=P:problem=mixed beam	!	!LO:TX:t=P:problem=mixed beam	!	!	!	!	!	!LO:LB:g=original	!	!	!	!	!	!	!
8D\	.	8.dd\L	.	8.dd\L	.	4d\	-gi-	4d\	-gi-	4dd\	-gi-	4dd\	-gi-	2.ryy	2.ryy	2.ryy	2.ryy
8r	.	.	.	.	.	.	.	.	.	.	.	.	.	.	.	.	.
.	.	16d/K	.	16d/K	.	.	.	.	.	.	.	.	.	.	.	.	.
8r	.	8e/J	.	8e/J	.	8D\	-na	8D/	-na	8d\	-na	8d/	-na	.	.	.	.
8D\	.	8f#/L	.	8f#/L	.	8F#\L	Pa-	8F#/L	An-	8f#\	Pa-	8f#/L	An-	.	.	.	.
8r	.	8e/	.	8e/	.	8E\J	-tri-	8E/J	.	8e\	-tri-	8e/	.	.	.	.	.
8r	.	8d/J	.	8d/J	.	8D\	-ar-	8D/	-ge-	8d\	-ar-	8d/J	-ge-	.	.	.	.
=28	=28	=28	=28	=28	=28	=28	=28	=28	=28	=28	=28	=28	=28	=28	=28	=28	=28
4C#/	x 6	8.c#/L	.	8.a/L	.	8.A\L	-cha-	8.A\L	-lo-	8.a\L	-cha-	8.a\L	-lo-	2.ryy	2.ryy	2.ryy	2.ryy
.	.	16d/K	.	16b/K	.	16B\K	.	16B\K	.	16b\K	.	16b\K	.	.	.	.	.
8BB/	x 6\	8B/J	.	8g#X/J	.	8G#X\J	.	8G#X\J	.	8g#X\J	.	8g#X\J	.	.	.	.	.
4AA/	.	4c#/	.	4a/	.	4A\	-rum	4A\	-rum	4a\	-rum	4a\	-rum	.	.	.	.
8r	.	8a/	.	8aa\	.	8r	.	8r	.	8r	.	8r	.	.	.	.	.
=29	=29	=29	=29	=29	=29	=29	=29	=29	=29	=29	=29	=29	=29	=29	=29	=29	=29
!	!	!LO:LB:g=original	!	!	!	!	!	!	!	!	!	!	!	!	!	!	!
8AA/L	.	16e/LL	.	16gg\LL	.	2.r	.	2.r	.	2.r	.	2.r	.	2.ryy	2.ryy	2.ryy	2.ryy
.	.	16a/	.	(16ff#\	.	.	.	.	.	.	.	.	.	.	.	.	.
8AA/	.	16e/	.	16ee\	.	.	.	.	.	.	.	.	.	.	.	.	.
.	.	16a/	.	16dd\)	.	.	.	.	.	.	.	.	.	.	.	.	.
8AA/J	.	16e/	.	16cc#\	.	.	.	.	.	.	.	.	.	.	.	.	.
.	.	16a/JJ	.	16b\JJ	.	.	.	.	.	.	.	.	.	.	.	.	.
!	!	!LO:TX:t=P:N:vis=2.):problem=nuty tremola puste w środku (LO	!	!	!	!	!	!	!	!	!	!	!	!	!	!	!
16AA/LL	.	16e/LL	.	4a\	.	.	.	.	.	.	.	.	.	.	.	.	.
16BB/	.	16a/	.	.	.	.	.	.	.	.	.	.	.	.	.	.	.
16C#/	.	16e/	.	.	.	.	.	.	.	.	.	.	.	.	.	.	.
16D/	.	16a/	.	.	.	.	.	.	.	.	.	.	.	.	.	.	.
16E/	.	16e/	.	8gg\	.	.	.	.	.	.	.	.	.	.	.	.	.
16C#/JJ	.	16a/JJ	.	.	.	.	.	.	.	.	.	.	.	.	.	.	.
=30	=30	=30	=30	=30	=30	=30	=30	=30	=30	=30	=30	=30	=30	=30	=30	=30	=30
8D\L	.	8d/L	.	8ff#\L	.	4r	.	4r	.	4r	.	4r	.	2.ryy	2.ryy	2.ryy	2.ryy
8F#\	.	16f#/L	.	(16dd\L	.	.	.	.	.	.	.	.	.	.	.	.	.
.	.	(16g/	.	16ee\	.	.	.	.	.	.	.	.	.	.	.	.	.
8A\J	.	16a/	.	16ff#\)	.	8r	.	8r	.	8r	.	8r	.	.	.	.	.
.	.	16g/JJ)	.	16ee\JJ	.	.	.	.	.	.	.	.	.	.	.	.	.
4D\	.	4f#/	.	4dd\	.	4r	.	4r	.	4r	.	4r	.	.	.	.	.
8r	.	8a/	.	8a\	.	8A\	Re-	8A\	Re-	8a\	Re-	8a\	Re-	.	.	.	.
=31	=31	=31	=31	=31	=31	=31	=31	=31	=31	=31	=31	=31	=31	=31	=31	=31	=31
!	!	!LO:TX:t=P:problem=mixed beam	!	!LO:TX:t=P:problem=mixed beam	!	!	!	!	!	!	!	!	!	!	!	!	!
4D\	.	8.dd\L	.	8.dd\L	.	4d\	-gi-	4d\	-gi-	4dd\	-gi-	4dd\	-gi-	2.ryy	2.ryy	2.ryy	2.ryy
.	.	16d/K	.	16d/K	.	.	.	.	.	.	.	.	.	.	.	.	.
8r	.	8e/J	.	8e/J	.	8D\	-na	8D/	-na	8d\	-na	8d/	-na	.	.	.	.
!	!	!	!	!	!	!LO:TX:t=	!	!	!	!	!	!LO:LB:g=original	!	!	!	!	!
4D\	.	8f#/L	.	8f#/L	.	8F#\	An-	8F#/	Pa-	8f#\	Pa-	8f#/	Pa-	.	.	.	.
.	.	8e/	.	8e/	.	8E\	.	8E/	-tri-	8e\	-tri-	8e/	-tri-	.	.	.	.
8r	.	8d/J	.	8d/J	.	8D\	-ge-	8D/	-ar-	8d\	-ar-	8d/	-ar-	.	.	.	.
=32	=32	=32	=32	=32	=32	=32	=32	=32	=32	=32	=32	=32	=32	=32	=32	=32	=32
!LO:LB:g=original	!	!	!	!	!	!	!	!LO:LB:g=original	!	!	!	!	!	!	!	!	!
4C#/	x 6	8.c#/L	.	8.a/L	.	8.A\L	-lo-	8.A\L	-cha-	8.a\L	-cha-	8.a\L	-cha-	2.ryy	2.ryy	2.ryy	2.ryy
.	.	16d/K	.	16b/K	.	16B\K	.	16B\K	.	16b\K	.	16b\K	.	.	.	.	.
8BB/	x 6\	8B/J	.	8g#X/J	.	8G#X\J	.	8G#X\J	.	8g#X\J	.	8g#X\J	.	.	.	.	.
!	!	!	!	!LO:LB:g=original	!LO:DY:t=pia	!	!	!	!	!	!	!	!	!	!	!	!
4AA/	.	4c#/	.	4a/	p	4A\	-rum	4A\	-rum	4a\	-rum.	4a\	-rum	.	.	.	.
8r	.	8c#/	.	8aa\	.	8A\	o-	8r	.	8r	.	8r	.	.	.	.	.
=33	=33	=33	=33	=33	=33	=33	=33	=33	=33	=33	=33	=33	=33	=33	=33	=33	=33
!	!	!	!	!	!	!	!	!	!	!LO:PB:g=original	!	!	!	!	!	!	!
8AA/L	.	8A/L	.	8gg\L	.	8Gn\L	-ra	0.r	.	0.r	.	0.r	.	2.ryy	2.ryy	2.ryy	2.ryy
8AA/	.	16A/L	.	8ee\	.	8E\J	.	.	.	.	.	.	.	.	.	.	.
.	.	16B/	.	.	.	.	.	.	.	.	.	.	.	.	.	.	.
8AA/J	.	16c#/	.	8cc#\J	.	8C#/	o-	.	.	.	.	.	.	.	.	.	.
.	.	16d/JJ	.	.	.	.	.	.	.	.	.	.	.	.	.	.	.
!	!	!LO:LB:g=original	!	!	!	!	!	!	!	!	!	!	!	!	!	!	!
8AA/L	.	8e/L	.	4a/	.	4AA/	-ra	.	.	.	.	.	.	.	.	.	.
8C#/	.	8c#/	.	.	.	.	.	.	.	.	.	.	.	.	.	.	.
8AA/J	.	8e/J	.	8g/	.	8G\	pro	.	.	.	.	.	.	.	.	.	.
=34	=34	=34	=34	=34	=34	=34	=34	=34	=34	=34	=34	=34	=34	=34	=34	=34	=34
8D\L	.	8d/L	.	8f#/L	.	8F#\L	no-	.	.	.	.	.	.	2.ryy	2.ryy	2.ryy	2.ryy
8F#\	x 6	16f#/L	.	16d/L	.	16D\L	.	.	.	.	.	.	.	.	.	.	.
.	.	(16g/	.	(16e/	.	16E\	.	.	.	.	.	.	.	.	.	.	.
8A\J	x 7	16a/	.	16f#/	.	16F#\	.	.	.	.	.	.	.	.	.	.	.
.	.	16g/JJ)	.	16e/JJ)	.	16E\JJ	.	.	.	.	.	.	.	.	.	.	.
4D\	.	4f#/	.	4d/	.	4D\	-bis	.	.	.	.	.	.	.	.	.	.
!LO:TX:a:i:t=Solo	!	!	!	!	!	!LO:TX:a:i:t=Solo	!	!	!	!	!	!	!	!	!	!	!
8r	.	8d/	.	8ff#\	.	8F#\	Re-	.	.	.	.	.	.	.	.	.	.
=35	=35	=35	=35	=35	=35	=35	=35	=35	=35	=35	=35	=35	=35	=35	=35	=35	=35
!	!	!	!LO:DY:t=po	!	!	!LO:LB:g=original	!	!	!	!	!	!	!	!	!	!	!
8D\L	x 6	4f#/	p	4bb\	.	4B\	-gi-	.	.	.	.	.	.	2.ryy	2.ryy	2.ryy	2.ryy
8D\	.	.	.	.	.	.	.	.	.	.	.	.	.	.	.	.	.
8D\J	.	8f#/	.	8bb\	.	8B\	-na	.	.	.	.	.	.	.	.	.	.
8D\L	.	4f#/	.	4bb\	.	4B\	Pro-	.	.	.	.	.	.	.	.	.	.
8D\	.	.	.	.	.	.	.	.	.	.	.	.	.	.	.	.	.
8D\J	.	8e/	.	8ccc#\	.	8c#\	-phae-	.	.	.	.	.	.	.	.	.	.
=36	=36	=36	=36	=36	=36	=36	=36	=36	=36	=36	=36	=36	=36	=36	=36	=36	=36
8D\L	.	8d/L	.	8.ddd\L	.	8.d\L	-ta-	.	.	.	.	.	.	2.ryy	2.ryy	2.ryy	2.ryy
8D\	.	8f#/	.	.	.	.	.	.	.	.	.	.	.	.	.	.	.
.	.	.	.	16aa#X\K	.	16A#X\K	.	.	.	.	.	.	.	.	.	.	.
8D\J	.	8f#/J	.	8bb\J	.	8B\J	.	.	.	.	.	.	.	.	.	.	.
8D\L	.	8f#/L	.	4bb\	.	4B\	-rum,	.	.	.	.	.	.	.	.	.	.
8C#\	.	8e/	.	.	.	.	.	.	.	.	.	.	.	.	.	.	.
8BB\J	.	8d/J	.	8ee\	.	8E\	Re-	.	.	.	.	.	.	.	.	.	.
=37	=37	=37	=37	=37	=37	=37	=37	=37	=37	=37	=37	=37	=37	=37	=37	=37	=37
!LO:LB:g=original	!	!	!	!	!	!	!	!	!	!	!	!	!	!	!	!	!
8C#/L	x 6	4e/	.	4aan\	.	4A\	-gi-	0.r	.	0.r	.	0.r	.	2.ryy	2.ryy	2.ryy	2.ryy
8C#/	.	.	.	.	.	.	.	.	.	.	.	.	.	.	.	.	.
8C#/J	.	8e/	.	8aa\	.	8A\	-na	.	.	.	.	.	.	.	.	.	.
8C#/L	.	4e/	.	4aa\	.	8A\	A-	.	.	.	.	.	.	.	.	.	.
8C#/	.	.	.	.	.	8A\	-po-	.	.	.	.	.	.	.	.	.	.
8C#/J	.	8d/	.	8bb\	.	8B\	-sto-	.	.	.	.	.	.	.	.	.	.
=38	=38	=38	=38	=38	=38	=38	=38	=38	=38	=38	=38	=38	=38	=38	=38	=38	=38
!	!	!	!	!LO:LB:g=original	!	!	!	!	!	!	!	!	!	!	!	!	!
8C#/L	.	8.c#/L	.	8.ccc#\L	.	8.c#\L	-lo-	.	.	.	.	.	.	2.ryy	2.ryy	2.ryy	2.ryy
8C#/	.	.	.	.	.	.	.	.	.	.	.	.	.	.	.	.	.
.	.	16d/K	.	16gg#X\K	.	16G#X\K	.	.	.	.	.	.	.	.	.	.	.
8C#/J	.	8c#/J	.	8aa\J	.	8A\J	.	.	.	.	.	.	.	.	.	.	.
!	!	!LO:LB:g=original	!	!	!	!LO:LB:g=original	!	!	!	!	!	!	!	!	!	!	!
8C#/L	.	4c#/	.	4aa\	.	4A\	-rum	.	.	.	.	.	.	.	.	.	.
8BB/	.	.	.	.	.	.	.	.	.	.	.	.	.	.	.	.	.
8AA/J	.	8a\	.	8ee\	.	8E\	o-	.	.	.	.	.	.	.	.	.	.
=39	=39	=39	=39	=39	=39	=39	=39	=39	=39	=39	=39	=39	=39	=39	=39	=39	=39
8D\	.	4a\	.	8ff#\	.	8F#\L	.	.	.	.	.	.	.	2.ryy	2.ryy	2.ryy	2.ryy
8r	.	.	.	8r	.	16A\L	.	.	.	.	.	.	.	.	.	.	.
.	.	.	.	.	.	16G#X\	.	.	.	.	.	.	.	.	.	.	.
8r	.	8r	.	8r	.	16F#\	.	.	.	.	.	.	.	.	.	.	.
.	.	.	.	.	.	16E\JJ	.	.	.	.	.	.	.	.	.	.	.
8D\	.	8a\	.	8ff#\	.	8F#\L	.	.	.	.	.	.	.	.	.	.	.
8r	.	8r	.	8r	.	16F#\L	.	.	.	.	.	.	.	.	.	.	.
.	.	.	.	.	.	16E\	.	.	.	.	.	.	.	.	.	.	.
8r	.	8b\	.	8ff#\	.	16D\	.	.	.	.	.	.	.	.	.	.	.
.	.	.	.	.	.	16C#\JJ	.	.	.	.	.	.	.	.	.	.	.
=40	=40	=40	=40	=40	=40	=40	=40	=40	=40	=40	=40	=40	=40	=40	=40	=40	=40
!	!	!	!	!	!	!LO:TX:t=P:problem=mixed beam	!	!	!	!	!	!	!	!	!	!	!
8E\	x #	4cc#\	.	8gg#X\	.	8BB/L	.	.	.	.	.	.	.	2.ryy	2.ryy	2.ryy	2.ryy
8r	.	.	.	8r	.	16B\L	.	.	.	.	.	.	.	.	.	.	.
.	.	.	.	.	.	16A\	.	.	.	.	.	.	.	.	.	.	.
8r	.	8r	.	8r	.	16G#X\	.	.	.	.	.	.	.	.	.	.	.
.	.	.	.	.	.	16F#\JJ	.	.	.	.	.	.	.	.	.	.	.
8E\|	.	8b\	.	8gg#\	.	8G#\L	.	.	.	.	.	.	.	.	.	.	.
8r	.	8r	.	8r	.	16G#\L	.	.	.	.	.	.	.	.	.	.	.
.	.	.	.	.	.	16F#\	.	.	.	.	.	.	.	.	.	.	.
8r	.	8b\	.	8gg#\	.	16E\	.	.	.	.	.	.	.	.	.	.	.
.	.	.	.	.	.	16D\JJ	.	.	.	.	.	.	.	.	.	.	.
=41	=41	=41	=41	=41	=41	=41	=41	=41	=41	=41	=41	=41	=41	=41	=41	=41	=41
!	!	!	!	!	!	!LO:TX:t=P:problem=mixed beam	!	!	!	!	!	!	!	!	!	!	!
8F#\	.	8cc#\	.	8aa\	.	8C#/L	.	0.r	.	0.r	.	0.r	.	2.ryy	2.ryy	2.ryy	2.ryy
8r	.	8r	.	8r	.	16c#\L	.	.	.	.	.	.	.	.	.	.	.
.	.	.	.	.	.	16B\	.	.	.	.	.	.	.	.	.	.	.
8r	.	8r	.	8r	.	16A\	.	.	.	.	.	.	.	.	.	.	.
.	.	.	.	.	.	16G#X\JJ	.	.	.	.	.	.	.	.	.	.	.
8F#\	.	8cc#\	.	8aa\	.	8A\L	.	.	.	.	.	.	.	.	.	.	.
8r	.	8r	.	8r	.	16A\L	.	.	.	.	.	.	.	.	.	.	.
.	.	.	.	.	.	16G#\	.	.	.	.	.	.	.	.	.	.	.
8r	.	8dd\	.	8aa\	.	16F#\	.	.	.	.	.	.	.	.	.	.	.
.	.	.	.	.	.	16E\JJ	.	.	.	.	.	.	.	.	.	.	.
=42	=42	=42	=42	=42	=42	=42	=42	=42	=42	=42	=42	=42	=42	=42	=42	=42	=42
!	!	!	!	!	!	!LO:LB:g=original	!	!	!	!	!	!	!	!	!	!	!
!LO:LB:g=original	!	!	!	!	!	!LO:TX:t=P:problem=mixed beam	!	!	!	!	!	!	!	!	!	!	!
8G#X\	.	8dd\	.	8bb\	.	8D/L	.	.	.	.	.	.	.	2.ryy	2.ryy	2.ryy	2.ryy
8r	.	8r	.	8r	.	16d\L	.	.	.	.	.	.	.	.	.	.	.
.	.	.	.	.	.	16c#\	.	.	.	.	.	.	.	.	.	.	.
8r	.	8r	.	8r	.	16B\	.	.	.	.	.	.	.	.	.	.	.
.	.	.	.	.	.	16A\JJ	.	.	.	.	.	.	.	.	.	.	.
8G#\	.	8dd\	.	8bb\	.	8B\L	.	.	.	.	.	.	.	.	.	.	.
8r	.	8r	.	8r	.	16B\L	.	.	.	.	.	.	.	.	.	.	.
.	.	.	.	.	.	16A\	.	.	.	.	.	.	.	.	.	.	.
8r	.	8dd\	.	8aa\	.	16G#X\	.	.	.	.	.	.	.	.	.	.	.
.	.	.	.	.	.	16F#\JJ	.	.	.	.	.	.	.	.	.	.	.
=43	=43	=43	=43	=43	=43	=43	=43	=43	=43	=43	=43	=43	=43	=43	=43	=43	=43
!	!	!	!	!LO:LB:g=original	!	!	!	!	!	!	!	!	!	!	!	!	!
8E\	.	8b\	.	8gg#X\L	.	8G\L	.	.	.	.	.	.	.	2.ryy	2.ryy	2.ryy	2.ryy
8r	.	8r	.	16bb\L	.	16B\L	.	.	.	.	.	.	.	.	.	.	.
.	.	.	.	(16aa\	.	16A\	.	.	.	.	.	.	.	.	.	.	.
8r	.	8r	.	16gg#\	.	16G\	.	.	.	.	.	.	.	.	.	.	.
.	.	.	.	16aa\JJ)	.	16A\JJ	.	.	.	.	.	.	.	.	.	.	.
!	!	!LO:LB:g=original	!	!	!	!	!	!	!	!	!	!	!	!	!	!	!
8E\	.	4dd\	.	8bb\L	.	8B\L	.	.	.	.	.	.	.	.	.	.	.
8r	.	.	.	8gg#\	.	8G\J	.	.	.	.	.	.	.	.	.	.	.
8r	.	8b\	.	8dd\J	.	8D\	-ra	.	.	.	.	.	.	.	.	.	.
=44	=44	=44	=44	=44	=44	=44	=44	=44	=44	=44	=44	=44	=44	=44	=44	=44	=44
!	!	!	!	!	!LO:DY:t=pia	!	!	!	!	!	!	!	!	!	!	!	!
8AA/	.	4a\	.	4cc#\	p	8C#\L	o-	.	.	.	.	.	.	2.ryy	2.ryy	2.ryy	2.ryy
8r	.	.	.	.	.	16D\L	.	.	.	.	.	.	.	.	.	.	.
.	.	.	.	.	.	16E\	.	.	.	.	.	.	.	.	.	.	.
8r	.	8r	.	8r	.	16F#\	.	.	.	.	.	.	.	.	.	.	.
.	.	.	.	.	.	16G#X\JJ	.	.	.	.	.	.	.	.	.	.	.
8C#/	.	4a\	.	4cc#\	.	16A\LL	.	.	.	.	.	.	.	.	.	.	.
.	.	.	.	.	.	16G#\	.	.	.	.	.	.	.	.	.	.	.
8r	.	.	.	.	.	16A\	.	.	.	.	.	.	.	.	.	.	.
.	.	.	.	.	.	16B\	.	.	.	.	.	.	.	.	.	.	.
8r	.	8r	.	8r	.	16c#\	.	.	.	.	.	.	.	.	.	.	.
.	.	.	.	.	.	16d\JJ	.	.	.	.	.	.	.	.	.	.	.
=45	=45	=45	=45	=45	=45	=45	=45	=45	=45	=45	=45	=45	=45	=45	=45	=45	=45
8E\L	6 4	4cc#\	.	4dd\	.	4e\	.	0.r	.	0.r	.	0.r	.	2.ryy	2.ryy	2.ryy	2.ryy
8E\	.	.	.	.	.	.	.	.	.	.	.	.	.	.	.	.	.
8E\J	.	8c#/	.	8a/	.	8C#/	.	.	.	.	.	.	.	.	.	.	.
8E\L	5 #	4B/	.	4g#X/	.	4BB/	-ra	.	.	.	.	.	.	.	.	.	.
8E\	.	.	.	.	.	.	.	.	.	.	.	.	.	.	.	.	.
8E\J	.	8e/	.	8ee\	.	8d\	o-	.	.	.	.	.	.	.	.	.	.
=46	=46	=46	=46	=46	=46	=46	=46	=46	=46	=46	=46	=46	=46	=46	=46	=46	=46
!	!	!	!	!	!	!LO:LB:g=original	!	!	!	!	!	!	!	!	!	!	!
8AA/	.	4a/	.	4cc#\	.	8c#\L	.	.	.	.	.	.	.	2.ryy	2.ryy	2.ryy	2.ryy
8r	.	.	.	.	.	8E\	.	.	.	.	.	.	.	.	.	.	.
8r	.	8r	.	8r	.	16F#\L	.	.	.	.	.	.	.	.	.	.	.
.	.	.	.	.	.	16G#X\JJ	.	.	.	.	.	.	.	.	.	.	.
8C#/	.	4a/	.	4ee\	.	16A\LL	.	.	.	.	.	.	.	.	.	.	.
.	.	.	.	.	.	16G#\	.	.	.	.	.	.	.	.	.	.	.
8r	.	.	.	.	.	16A\	.	.	.	.	.	.	.	.	.	.	.
.	.	.	.	.	.	16B\	.	.	.	.	.	.	.	.	.	.	.
8r	.	8r	.	8r	.	16c#\	.	.	.	.	.	.	.	.	.	.	.
.	.	.	.	.	.	16d\JJ	.	.	.	.	.	.	.	.	.	.	.
=47	=47	=47	=47	=47	=47	=47	=47	=47	=47	=47	=47	=47	=47	=47	=47	=47	=47
!LO:LB:g=original	!	!	!	!	!	!	!	!	!	!	!	!	!	!	!	!	!
8E\L	6 4	4cc#\	.	4ee\	.	4e\	.	.	.	.	.	.	.	2.ryy	2.ryy	2.ryy	2.ryy
8E\	.	.	.	.	.	.	.	.	.	.	.	.	.	.	.	.	.
8E\J	.	8c#/	.	8a/	.	8C#/	.	.	.	.	.	.	.	.	.	.	.
8EE/L	5 #	4B/	.	4g#X/	.	4BB/	-ra	.	.	.	.	.	.	.	.	.	.
8EE/	_ _	.	.	.	.	.	.	.	.	.	.	.	.	.	.	.	.
!	!	!	!	!LO:SIC:v:s=8gg#\	!	!	!	!	!	!	!	!	!	!	!	!	!
8EE/J	x x	8dd\	.	8gg\	.	8d\	O-	.	.	.	.	.	.	.	.	.	.
=48	=48	=48	=48	=48	=48	=48	=48	=48	=48	=48	=48	=48	=48	=48	=48	=48	=48
4AA/	.	8.cc#\L	.	8.aa\L	.	4c#\	-ra	.	.	.	.	.	.	2.ryy	2.ryy	2.ryy	2.ryy
.	.	16b\K	.	16gg#X\K	.	.	.	.	.	.	.	.	.	.	.	.	.
8r	.	8cc#\J	.	8aa\J	.	8r	.	.	.	.	.	.	.	.	.	.	.
*	*	*	*	*	*	*	*ij	*	*	*	*	*	*	*	*	*	*
4.D#X\	x n7	8a/L	.	8ccc#\L	.	8c#\	o-	.	.	.	.	.	.	.	.	.	.
.	x 65	8g#X/	.	8bb\	.	8B\	-ra	.	.	.	.	.	.	.	.	.	.
*	*	*	*	*	*	*	*Xij	*	*	*	*	*	*	*	*	*	*
.	.	8f#/J	.	8aa\J	.	8A\	pro	.	.	.	.	.	.	.	.	.	.
=49	=49	=49	=49	=49	=49	=49	=49	=49	=49	=49	=49	=49	=49	=49	=49	=49	=49
!	!	!	!	!LO:LB:g=original	!	!	!	!	!	!	!	!	!	!	!	!	!
8E\L	x #	8g#X/L	.	8gg#X\L	.	8G#X\	no-	1.r	.	1.r	.	1.r	.	2.ryy	2.ryy	2.ryy	2.ryy
8E\	.	8g#/	.	16ee\L	.	8E\	-bis	.	.	.	.	.	.	.	.	.	.
.	.	.	.	16gg#\J	.	.	.	.	.	.	.	.	.	.	.	.	.
8E\J	.	8g#/J	.	8ee\J	.	8r	.	.	.	.	.	.	.	.	.	.	.
!	!	!LO:LB:g=original	!	!	!	!	!	!	!	!	!	!	!	!	!	!	!
4E\	.	4g#/	.	4ee\	.	4r	.	.	.	.	.	.	.	.	.	.	.
8r	.	8a/	.	8aa\	.	8A\	Re-	.	.	.	.	.	.	.	.	.	.
=50	=50	=50	=50	=50	=50	=50	=50	=50	=50	=50	=50	=50	=50	=50	=50	=50	=50
!	!	!	!	!	!	!LO:LB:g=original	!	!	!	!	!	!	!	!	!	!	!
4D\	.	8.d/L	.	8.ff#\L	.	8F#\L	-gi-	.	.	.	.	.	.	2.ryy	2.ryy	2.ryy	2.ryy
.	.	.	.	.	.	8D\J	.	.	.	.	.	.	.	.	.	.	.
.	.	16f#/K	.	16dd\K	.	.	.	.	.	.	.	.	.	.	.	.	.
8r	.	8a/J	.	8aa\J	.	8A\	-na	.	.	.	.	.	.	.	.	.	.
4C#\	x 6	8.c#/L	.	8.ee\L	.	8E\L	Pro-	.	.	.	.	.	.	.	.	.	.
.	.	.	.	.	.	8C#\J	.	.	.	.	.	.	.	.	.	.	.
.	.	16e/K	.	16cc#\K	.	.	.	.	.	.	.	.	.	.	.	.	.
8r	.	8a/J	.	8aa\J	.	8A\	-phae-	.	.	.	.	.	.	.	.	.	.
!	!	!	!	!	!	!	!	!LO:TX:t=+:b	!	!	!	!	!	!	!	!	!
=51	=51	=51	=51	=51	=51	=51	=51	=51	=51	=51	=51	=51	=51	=51	=51	=51	=51
!	!	!	!	!	!	!	!	!LO:TX:t=P:problem=po ostatniej pauzie mały plus, prawdopodobnie\noznaczający potrzebę dodania jeszcze taktu pauzy	!	!LO:TX:t=P:problem=brak jednego taktu pauzy	!	!LO:TX:t=P:problem=brak jednego taktu pauzy	!	!	!	!	!
4D\	.	8.d/L	.	8.ff#\L	.	8F#\L	-ta-	2.ryy	.	2.ryy	.	2.ryy	.	2.ryy	2.ryy	2.ryy	2.ryy
.	.	.	.	.	.	8D\	.	.	.	.	.	.	.	.	.	.	.
.	.	16f#/K	.	16dd\K	.	.	.	.	.	.	.	.	.	.	.	.	.
8r	.	8a/J	.	8aa\J	.	8A\J	.	.	.	.	.	.	.	.	.	.	.
4C#\	x 6	4c#/	.	4ee\	.	4E\	-rum	.	.	.	.	.	.	.	.	.	.
!	!	!	!LO:DY:t=for	!	!	!LO:TX:a:i:t=Tutti	!	!	!	!	!	!	!	!	!	!	!
8r	.	8a/	f	8aa\	.	8A\	O-	.	.	.	.	.	.	.	.	.	.
=52	=52	=52	=52	=52	=52	=52	=52	=52	=52	=52	=52	=52	=52	=52	=52	=52	=52
!	!	!	!	!	!	!	!	!LO:SIC:v:s=8d\	!	!	!	!	!	!	!	!	!
8D\L	x 5	8.d/L	.	8.b\L	.	4D\	-ra	8f#\	O-	8.c#\	O-	4r	.	2.ryy	2.ryy	2.ryy	2.ryy
!	!	!	!	!	!	!	!	!LO:SIC:v:s=8d\	!	!	!	!	!	!	!	!	!
8D\	x 6	.	.	.	.	.	.	8f#\	-ra	.	.	.	.	.	.	.	.
.	.	16f#/K	.	16dd\K	.	.	.	.	.	16f#\	-ra	.	.	.	.	.	.
!	!	!	!	!	!	!	!	!LO:SIC:v:s=8d\	!	!	!	!	!	!	!	!	!
8D\J	.	8e/J	.	8cc#\J	.	8D\	pro	8f#\	pro	8e\	pro	8r	.	.	.	.	.
8E\L	x #	8.d/L	.	8b\L	.	4E\	no-	4e\	no-	8d\L	no-	4r	.	.	.	.	.
8E\	.	.	.	8a\	.	.	.	.	.	8c#\J	.	.	.	.	.	.	.
.	.	16c#/K	.	.	.	.	.	.	.	.	.	.	.	.	.	.	.
8E\J	.	8B/J	.	8g#X\J	.	8EE/	.	8e\	-bis	8B\	-bis	(8a\	o-	.	.	.	.
=53	=53	=53	=53	=53	=53	=53	=53	=53	=53	=53	=53	=53	=53	=53	=53	=53	=53
!LO:LB:g=original	!	!LO:TX:t=P:problem=mixed beam	!	!	!	!	!	!LO:SIC:v:s=8e\	!	!	!	!	!	!	!	!	!
4AA/	.	8.A/L	.	8.a\L	.	4AA/	-bis	8f#\	O-	8.c#\	O-	8.f#/)	.	2.ryy	2.ryy	2.ryy	2.ryy
!	!	!	!	!	!	!	!	!LO:SIC:v:s=8e\	!	!	!	!	!	!	!	!	!
.	.	.	.	.	.	.	.	8f#\	-ra	.	.	.	.	.	.	.	.
.	.	16dd\K	.	16ff#\K	.	.	.	.	.	16f#\	-ra	16dd\	-ra	.	.	.	.
!	!	!	!	!	!	!	!	!LO:SIC:v:s=8e\	!	!	!	!	!	!	!	!	!
8r	.	8cc#\J	.	8ee\J	.	8r	.	8f#\	pro	8e\	pro	8cc#\	pro	.	.	.	.
.	.	.	.	8qee/	.	.	.	.	.	.	.	.	.	.	.	.	.
8D\L	x 6	8b\L	.	8.dd\L	.	8D\L	o-	4e\	no-	8d\L	no-	8b\L	no-	.	.	.	.
8BB\	.	8a\	.	.	.	8BB\	.	.	.	8c#\J	.	8a\J	.	.	.	.	.
.	.	.	.	16cc#\K	.	.	.	.	.	.	.	.	.	.	.	.	.
8E\J	x #	8g#X\J	.	8b\J	.	8E\J	.	8e\	-bis	8B\	-bis	8g#X\	-bis	.	.	.	.
=54	=54	=54	=54	=54	=54	=54	=54	=54	=54	=54	=54	=54	=54	=54	=54	=54	=54
!	!	!	!	!	!	!	!	!LO:LB:g=original	!	!	!	!	!	!	!	!	!
!	!	!	!	!LO:PB:g=original	!	!	!	!LO:SIC:v:s=8e\	!	!	!	!LO:LB:g=original	!	!	!	!	!
4A\	.	8.a/L	.	8.cc#\L	.	4A\	-ra	8f#\	O-	8.c#\	O-	8.a\	o-	2.ryy	2.ryy	2.ryy	2.ryy
!	!	!	!	!	!	!	!	!LO:SIC:v:s=8e\	!	!	!	!	!	!	!	!	!
.	.	.	.	.	.	.	.	8f#\	-ra	.	.	.	.	.	.	.	.
.	.	16f#/K	.	16dd\K	.	.	.	.	.	16f#\	-ra	16dd\	-ra	.	.	.	.
!	!	!	!	!	!	!	!	!LO:SIC:v:s=8e\	!	!	!	!	!	!	!	!	!
8r	.	8e/J	.	8cc#\J	.	8r	.	8f#\	pro	8e\	pro	8cc#\	pro	.	.	.	.
.	.	.	.	8qcc#/	.	.	.	.	.	.	.	.	.	.	.	.	.
!	!	!	!	!	!	!LO:LB:g=original	!	!	!	!LO:LB:g=original	!	!	!	!	!	!	!
8D\L	x 6	8d/L	.	8b\L	.	8D\	pro	4.e\	no-	8d\L	no-	8b\L	no-	.	.	.	.
!	!	!	!	!	!	!LO:TX:t=P:problem=mixed beam	!	!	!	!	!	!	!	!	!	!	!
8BB\	.	8c#/	.	8a\	.	8BB/L	no-	.	.	8c#\	.	8a\	.	.	.	.	.
8E\J	x #	8B/J	.	8g#X\J	.	8E\J	.	.	.	8B\J	.	8g#X\J	.	.	.	.	.
=55	=55	=55	=55	=55	=55	=55	=55	=55	=55	=55	=55	=55	=55	=55	=55	=55	=55
!LO:TX:t=P:problem=mixed beam	!	!LO:LB:g=original	!	!	!	!	!	!	!	!	!	!	!	!	!	!	!
8A\L|>	.	8c#/L	.	8a/L	.	4AA/	-bis	4e\	-bis	4c#\	-bis	4a\	-bis	2.ryy	2.ryy	2.ryy	2.ryy
8C#/|>	.	16c#/L	.	16c#/L	.	.	.	.	.	.	.	.	.	.	.	.	.
.	.	16d/	.	16d/	.	.	.	.	.	.	.	.	.	.	.	.	.
8E/J|>	.	16e/	.	16e/	.	8r	.	8r	.	8r	.	8r	.	.	.	.	.
.	.	16c#/JJ	.	16c#/JJ	.	.	.	.	.	.	.	.	.	.	.	.	.
4AA/	.	4A/	.	4A/	.	4r	.	4r	.	4r	.	4r	.	.	.	.	.
!	!	!	!	!	!LO:DY:t=for	!	!	!	!	!	!	!	!	!	!	!	!
8r	.	8ee\	.	8ee\	f	8r	.	8r	.	8r	.	8r	.	.	.	.	.
=56	=56	=56	=56	=56	=56	=56	=56	=56	=56	=56	=56	=56	=56	=56	=56	=56	=56
!LO:TX:a:i:t=Solo	!	!LO:TX:t=P:problem=mixed beam	!	!LO:TX:t=P:problem=mixed beam	!	!	!	!	!	!	!	!	!	!	!	!	!
8A\L	.	8.aa\L	.	8.aa\L	.	0.r	.	0.r	.	0.r	.	0.r	.	2.ryy	2.ryy	2.ryy	2.ryy
8A\	.	.	.	.	.	.	.	.	.	.	.	.	.	.	.	.	.
.	.	16g#X/K	.	16a/K	.	.	.	.	.	.	.	.	.	.	.	.	.
8A\J	.	8b/J	.	8b/J	.	.	.	.	.	.	.	.	.	.	.	.	.
8A\L	.	8cc#\L	.	8cc#\L	.	.	.	.	.	.	.	.	.	.	.	.	.
8A\	.	8b\	.	8b\	.	.	.	.	.	.	.	.	.	.	.	.	.
8A\J	.	8a\J	.	8a\J	.	.	.	.	.	.	.	.	.	.	.	.	.
=57	=57	=57	=57	=57	=57	=57	=57	=57	=57	=57	=57	=57	=57	=57	=57	=57	=57
8G#X\L	x 6	8.g#X/L	.	8.ee\L	.	.	.	.	.	.	.	.	.	2.ryy	2.ryy	2.ryy	2.ryy
8G#\	.	.	.	.	.	.	.	.	.	.	.	.	.	.	.	.	.
.	.	16a/K	.	16ff#\K	.	.	.	.	.	.	.	.	.	.	.	.	.
8F#\J	x 6\	8f#/J	.	8dd#X\J	.	.	.	.	.	.	.	.	.	.	.	.	.
4E\	.	4g#/	.	4ee\	.	.	.	.	.	.	.	.	.	.	.	.	.
8r	.	8e/	.	8ee\	.	.	.	.	.	.	.	.	.	.	.	.	.
=58	=58	=58	=58	=58	=58	=58	=58	=58	=58	=58	=58	=58	=58	=58	=58	=58	=58
8E\L	x #	16B/LL	.	16bb\LL	.	.	.	.	.	.	.	.	.	2.ryy	2.ryy	2.ryy	2.ryy
.	.	16e/	.	16aa\	.	.	.	.	.	.	.	.	.	.	.	.	.
8E\	.	16B/	.	16bb\	.	.	.	.	.	.	.	.	.	.	.	.	.
.	.	16e/	.	16aa\	.	.	.	.	.	.	.	.	.	.	.	.	.
8E\J	.	16B/	.	16gg#X\	.	.	.	.	.	.	.	.	.	.	.	.	.
*	*	*	*	*custos:ee	*	*	*	*	*	*	*	*	*	*	*	*	*
.	.	16e/JJ	.	16ff#\JJ	.	.	.	.	.	.	.	.	.	.	.	.	.
!LO:LB:g=original	!	!	!	!LO:LB:g=original	!	!	!	!	!	!	!	!	!	!	!	!	!
16E\LL	.	16B/LL	.	4ee\	.	.	.	.	.	.	.	.	.	.	.	.	.
16F#\	.	16e/	.	.	.	.	.	.	.	.	.	.	.	.	.	.	.
16G#X\	.	16B/	.	.	.	.	.	.	.	.	.	.	.	.	.	.	.
16A\	.	16e/	.	.	.	.	.	.	.	.	.	.	.	.	.	.	.
16B\	.	16B/	.	8dd\	.	.	.	.	.	.	.	.	.	.	.	.	.
16G#\JJ	.	16e/JJ	.	.	.	.	.	.	.	.	.	.	.	.	.	.	.
=59	=59	=59	=59	=59	=59	=59	=59	=59	=59	=59	=59	=59	=59	=59	=59	=59	=59
!LO:TX:t=P:problem=mixed beam	!	!LO:PB:g=original	!	!	!	!	!	!	!	!	!	!	!	!	!	!	!
.	.	.	.	8qqdd/	.	.	.	.	.	.	.	.	.	.	.	.	.
8A\L	.	8a/L	.	8cc#\L	.	.	.	.	.	.	.	.	.	2.ryy	2.ryy	2.ryy	2.ryy
8C#/	.	(16c#/L	.	(16a\L	.	.	.	.	.	.	.	.	.	.	.	.	.
.	.	16d/	.	16b\	.	.	.	.	.	.	.	.	.	.	.	.	.
8E/J	.	16e/	.	16cc#\	.	.	.	.	.	.	.	.	.	.	.	.	.
.	.	16c#/JJ)	.	16b\JJ)	.	.	.	.	.	.	.	.	.	.	.	.	.
4AA/	.	4c#/	.	4a\	.	.	.	.	.	.	.	.	.	.	.	.	.
8r	.	8e/	.	8ee\	.	.	.	.	.	.	.	.	.	.	.	.	.
=60	=60	=60	=60	=60	=60	=60	=60	=60	=60	=60	=60	=60	=60	=60	=60	=60	=60
8E\L	.	(16B/LL	.	16dd\LL	.	0.r	.	0.r	.	0.r	.	0.r	.	2.ryy	2.ryy	2.ryy	2.ryy
.	.	16e/)	.	(16cc#\	.	.	.	.	.	.	.	.	.	.	.	.	.
8E\	.	(16B/	.	16b\	.	.	.	.	.	.	.	.	.	.	.	.	.
.	.	16e/)	.	16a\	.	.	.	.	.	.	.	.	.	.	.	.	.
8E\J	.	(16B/	.	16g#X\)	.	.	.	.	.	.	.	.	.	.	.	.	.
.	.	16e/JJ)	.	16f#\JJ	.	.	.	.	.	.	.	.	.	.	.	.	.
16E\LL	.	(16B/LL	.	4e/	.	.	.	.	.	.	.	.	.	.	.	.	.
16F#\	.	16e/)	.	.	.	.	.	.	.	.	.	.	.	.	.	.	.
16G#X\	.	(16B/	.	.	.	.	.	.	.	.	.	.	.	.	.	.	.
16A\	.	16e/)	.	.	.	.	.	.	.	.	.	.	.	.	.	.	.
16B\	.	(16B/	.	8dd\	.	.	.	.	.	.	.	.	.	.	.	.	.
16G#\JJ	.	16e/JJ)	.	.	.	.	.	.	.	.	.	.	.	.	.	.	.
=61	=61	=61	=61	=61	=61	=61	=61	=61	=61	=61	=61	=61	=61	=61	=61	=61	=61
!LO:TX:t=P:problem=mixed beam	!	!	!	!LO:TX:t=P:problem=mixed beam	!	!	!	!	!	!	!	!	!	!	!	!	!
8A\L	.	8a/L	.	8cc#\L	.	.	.	.	.	.	.	.	.	2.ryy	2.ryy	2.ryy	2.ryy
8C#/	.	(16c#/L	.	16c#/L	.	.	.	.	.	.	.	.	.	.	.	.	.
.	.	16d/	.	16d/	.	.	.	.	.	.	.	.	.	.	.	.	.
8E/J	.	16e/	.	16e/	.	.	.	.	.	.	.	.	.	.	.	.	.
.	.	16c#/JJ)	.	16c#/JJ	.	.	.	.	.	.	.	.	.	.	.	.	.
4AA/	.	4A/	.	4A/	.	.	.	.	.	.	.	.	.	.	.	.	.
!	!	!	!LO:DY:t=po	!	!LO:DY:t=pia	!	!	!	!	!	!	!	!	!	!	!	!
8r	.	8a/	p	8a/	p	.	.	.	.	.	.	.	.	.	.	.	.
=62	=62	=62	=62	=62	=62	=62	=62	=62	=62	=62	=62	=62	=62	=62	=62	=62	=62
8D\	.	8.d/L	.	8.f#/L	.	.	.	.	.	.	.	.	.	2.ryy	2.ryy	2.ryy	2.ryy
8r	.	.	.	.	.	.	.	.	.	.	.	.	.	.	.	.	.
.	.	16A/K	.	16d/K	.	.	.	.	.	.	.	.	.	.	.	.	.
8r	.	8f#/J	.	8a/J	.	.	.	.	.	.	.	.	.	.	.	.	.
8C#\	x 6	8.c#/L	.	8.e/L	.	.	.	.	.	.	.	.	.	.	.	.	.
8r	.	.	.	.	.	.	.	.	.	.	.	.	.	.	.	.	.
.	.	16A/K	.	16c#/K	.	.	.	.	.	.	.	.	.	.	.	.	.
8r	.	8e/J	.	8a/J	.	.	.	.	.	.	.	.	.	.	.	.	.
=63	=63	=63	=63	=63	=63	=63	=63	=63	=63	=63	=63	=63	=63	=63	=63	=63	=63
!LO:LB:g=original	!	!LO:LB:g=original	!	!LO:LB:g=original	!	!	!	!	!	!	!	!	!	!	!	!	!
8D\	.	8.d/L	.	8.f#/L	.	.	.	.	.	.	.	.	.	2.ryy	2.ryy	2.ryy	2.ryy
8r	.	.	.	.	.	.	.	.	.	.	.	.	.	.	.	.	.
.	.	16A/K	.	16d/K	.	.	.	.	.	.	.	.	.	.	.	.	.
8r	.	8f#/J	.	8a/J	.	.	.	.	.	.	.	.	.	.	.	.	.
8C#\	x 6	4c#/	.	4e/	.	.	.	.	.	.	.	.	.	.	.	.	.
8r	.	.	.	.	.	.	.	.	.	.	.	.	.	.	.	.	.
!	!	!	!LO:DY:t=for	!	!	!	!	!	!	!	!	!	!	!	!	!	!
8r	.	8aa\	f	8aa\	.	.	.	.	.	.	.	.	.	.	.	.	.
=64	=64	=64	=64	=64	=64	=64	=64	=64	=64	=64	=64	=64	=64	=64	=64	=64	=64
8D\L	x 6	8.b/L	.	8.b\L	.	1.r	.	1.r	.	1.r	.	1.r	.	2.ryy	2.ryy	2.ryy	2.ryy
8D\	.	.	.	.	.	.	.	.	.	.	.	.	.	.	.	.	.
.	.	16f#/K	.	16dd\K	.	.	.	.	.	.	.	.	.	.	.	.	.
8D\J	.	8e/J	.	8cc#\J	.	.	.	.	.	.	.	.	.	.	.	.	.
8E\L	6 4	8d/L	.	8b\L	.	.	.	.	.	.	.	.	.	.	.	.	.
8E\	5 #	8c#/	.	8a\	.	.	.	.	.	.	.	.	.	.	.	.	.
8E\J	.	8B/J	.	8g#X\J	.	.	.	.	.	.	.	.	.	.	.	.	.
=65	=65	=65	=65	=65	=65	=65	=65	=65	=65	=65	=65	=65	=65	=65	=65	=65	=65
!	!	!LO:TX:t=P:problem=mixed beam	!	!	!	!	!	!	!	!	!	!	!	!	!	!	!
4AA/	.	8.c#/L	.	8.a\L	.	.	.	.	.	.	.	.	.	2.ryy	2.ryy	2.ryy	2.ryy
.	.	16dd\K	.	16ff#\K	.	.	.	.	.	.	.	.	.	.	.	.	.
8r	.	8cc#\J	.	8ee\J	.	.	.	.	.	.	.	.	.	.	.	.	.
4D\	.	8b\L	.	8dd\L	.	.	.	.	.	.	.	.	.	.	.	.	.
.	.	8a\	.	8cc#\	.	.	.	.	.	.	.	.	.	.	.	.	.
8E\	x #	8g#X\J	.	8b\J	.	.	.	.	.	.	.	.	.	.	.	.	.
=66	=66	=66	=66	=66	=66	=66	=66	=66	=66	=66	=66	=66	=66	=66	=66	=66	=66
4AA/	.	8.a/L	.	8.cc#\L	.	2.r	.	2.r	.	2.r	.	2.r	.	2.ryy	2.ryy	2.ryy	2.ryy
.	.	16f#/K	.	16dd\K	.	.	.	.	.	.	.	.	.	.	.	.	.
8r	.	8e/J	.	8cc#\J	.	.	.	.	.	.	.	.	.	.	.	.	.
4D\	.	8d/L	.	8b\L	.	.	.	.	.	.	.	.	.	.	.	.	.
.	.	8c#/	.	8a\	.	.	.	.	.	.	.	.	.	.	.	.	.
8E\	x #	8B/J	.	8g#X\J	.	.	.	.	.	.	.	.	.	.	.	.	.
=67	=67	=67	=67	=67	=67	=67	=67	=67	=67	=67	=67	=67	=67	=67	=67	=67	=67
!LO:TX:t=P:problem=mixed beam	!	!	!	!	!	!LO:PB:g=original	!	!	!	!	!	!	!	!	!	!	!
8A\L	.	8c#/L	.	8a/L	.	4r	.	4r	.	4r	.	4r	.	2.ryy	2.ryy	2.ryy	2.ryy
16C#/L	.	(16c#/L	.	16c#/L	.	.	.	.	.	.	.	.	.	.	.	.	.
16D/	.	16d/	.	16d/	.	.	.	.	.	.	.	.	.	.	.	.	.
16E/	.	16e/	.	16e/	.	8r	.	8r	.	8r	.	8r	.	.	.	.	.
16C#/JJ	.	16c#/JJ)	.	16c#/JJ	.	.	.	.	.	.	.	.	.	.	.	.	.
4AA/	.	4A/	.	4A/	.	4r	.	4r	.	4r	.	4r	.	.	.	.	.
8r	.	8a/	.	8ee\	.	8E\	Re-	8e\	Re-	8e\	Re-	8ee\	Re-	.	.	.	.
=68	=68	=68	=68	=68	=68	=68	=68	=68	=68	=68	=68	=68	=68	=68	=68	=68	=68
!LO:TX:a:i:t=Tutti	!	!LO:LB:g=original	!	!LO:TX:t=P:problem=mixed beam	!	!	!	!	!	!	!	!	!	!	!	!	!
!LO:LB:g=original	!	!	!	!	!	!	!	!	!	!	!	!	!	!	!	!	!
8AA/	.	8.a/L	.	8.aa\L	.	4A\	-gi-	4a\	-gi-	4a\	-gi-	4aa\	-gi-	2.ryy	2.ryy	2.ryy	2.ryy
8r	.	.	.	.	.	.	.	.	.	.	.	.	.	.	.	.	.
.	.	16g#X/K	.	16a/K	.	.	.	.	.	.	.	.	.	.	.	.	.
8r	.	8a/J	.	8b/J	.	8AA/	-na	8A\	-na	8A/	-na	8a\	-na	.	.	.	.
*	*	*	*	*	*	*	*	*	*	*	*ij	*	*	*	*	*	*
!	!	!	!	!LO:LB:g=original	!	!	!	!	!	!	!	!	!	!	!	!	!
8AA/	.	8cc#\L	.	8cc#\L	.	8C#/	A-	8c#\	A-	8c#/	Re-	8cc#\	A-	.	.	.	.
8r	.	8b\	.	8b\	.	8BB/	-po-	8B\	-po-	8B/	-gi-	8b\	-po-	.	.	.	.
8r	.	8a\J	.	8a\J	.	8AA/	-sto-	8A\	-sto-	8A/	-na	8a\	-sto-	.	.	.	.
*	*	*	*	*	*	*	*	*	*	*	*Xij	*	*	*	*	*	*
=69	=69	=69	=69	=69	=69	=69	=69	=69	=69	=69	=69	=69	=69	=69	=69	=69	=69
!	!	!	!	!	!LO:DY:t=pia	!	!	!LO:LB:g=original	!	!	!	!LO:LB:g=original	!	!	!	!	!
4G#X\	.	8.g#X/L	.	8.ee\L	p	8.E\L	-lo-	8.e\L	-lo-	8.e\L	Mar-	8.ee\L	-lo-	2.ryy	2.ryy	2.ryy	2.ryy
.	.	16a/K	.	16ff#\K	.	16F#\K	.	16f#\K	.	16f#\Jk	.	16ff#\k	.	.	.	.	.
8F#\	x 6\	8f#/J	.	8dd#X\J	.	8D#X\J	.	8d#X\J	.	8d#X\	-ty-	8dd#X\J	.	.	.	.	.
4E\	x #	4g#/	.	4ee\	.	4E\	-rum	4e\	-rum	4e\	-rum	4ee\	-rum	.	.	.	.
8r	.	8g#/	.	8ee\	.	8E\	o-	8r	.	8r	.	8r	.	.	.	.	.
=70	=70	=70	=70	=70	=70	=70	=70	=70	=70	=70	=70	=70	=70	=70	=70	=70	=70
!LO:TX:a:i:t=Solo	!	!	!	!	!	!	!	!	!	!LO:LB:g=original	!	!	!	!	!	!	!
4E\	.	8e/L	.	8bb\L	.	8B\L	-ra	1.r	.	1.r	.	1.r	.	2.ryy	2.ryy	2.ryy	2.ryy
!	!	!	!LO:DY:t=po&colon;	!	!	!	!	!	!	!	!	!	!	!	!	!	!
.	.	16e/L	p	8gg#X\	.	8G#X\J	.	.	.	.	.	.	.	.	.	.	.
.	.	16f#/	.	.	.	.	.	.	.	.	.	.	.	.	.	.	.
8E\	.	16g#X/	.	8ee\J	.	8E\	pro	.	.	.	.	.	.	.	.	.	.
.	.	16a/JJ	.	.	.	.	.	.	.	.	.	.	.	.	.	.	.
8E\L	.	8b/L	.	4b\	.	4BB/	no-	.	.	.	.	.	.	.	.	.	.
8G#X\	.	8g#/	.	.	.	.	.	.	.	.	.	.	.	.	.	.	.
8E\J	.	8b/J	.	8dd\	.	8D/	.	.	.	.	.	.	.	.	.	.	.
=71	=71	=71	=71	=71	=71	=71	=71	=71	=71	=71	=71	=71	=71	=71	=71	=71	=71
!LO:TX:t=P:problem=mixed beam	!	!	!	!	!	!LO:LB:g=original	!	!	!	!	!	!	!	!	!	!	!
8A\L	.	8a/L	.	8cc#\L	.	16C#/LL	.	.	.	.	.	.	.	2.ryy	2.ryy	2.ryy	2.ryy
.	.	.	.	.	.	16BB/JJ	.	.	.	.	.	.	.	.	.	.	.
8C#/	x 6	8c#/	.	8a\	.	8AA/	-bis	.	.	.	.	.	.	.	.	.	.
8E/J	.	8c#/J	.	8a\J	.	8r	.	.	.	.	.	.	.	.	.	.	.
4AA/	.	4c#/	.	4A/ 4a	.	4r	.	.	.	.	.	.	.	.	.	.	.
8r	.	8ee\	.	16ee\LL	.	8r	.	.	.	.	.	.	.	.	.	.	.
.	.	.	.	16gg#X\JJ	.	.	.	.	.	.	.	.	.	.	.	.	.
=72	=72	=72	=72	=72	=72	=72	=72	=72	=72	=72	=72	=72	=72	=72	=72	=72	=72
8E\L	.	(16b\LL	.	16bb\LL	.	2.r	.	2.r	.	2.r	.	2.r	.	2.ryy	2.ryy	2.ryy	2.ryy
.	.	16ee\)	.	16aa\	.	.	.	.	.	.	.	.	.	.	.	.	.
8E\	.	(16b\	.	(16bb\	.	.	.	.	.	.	.	.	.	.	.	.	.
.	.	16ee\)	.	16aa\	.	.	.	.	.	.	.	.	.	.	.	.	.
8E\J	.	(16b\	.	16gg#X\)	.	.	.	.	.	.	.	.	.	.	.	.	.
.	.	16ee\JJ)	.	16ff#\JJ	.	.	.	.	.	.	.	.	.	.	.	.	.
.	.	.	.	8qqff#/	.	.	.	.	.	.	.	.	.	.	.	.	.
!	!	!LO:LB:g=original	!	!	!	!	!	!	!	!	!	!	!	!	!	!	!
16E\LL	.	(16b\LL	.	4ee\	.	.	.	.	.	.	.	.	.	.	.	.	.
16F#\	.	16ee\)	.	.	.	.	.	.	.	.	.	.	.	.	.	.	.
16G#X\	.	(16b\	.	.	.	.	.	.	.	.	.	.	.	.	.	.	.
16A\	.	16ee\)	.	.	.	.	.	.	.	.	.	.	.	.	.	.	.
16B\	.	(16g#X\	.	8dd\	.	.	.	.	.	.	.	.	.	.	.	.	.
16G#\JJ	.	16ee\JJ)	.	.	.	.	.	.	.	.	.	.	.	.	.	.	.
=73	=73	=73	=73	=73	=73	=73	=73	=73	=73	=73	=73	=73	=73	=73	=73	=73	=73
!LO:TX:t=P:problem=mixed beam	!	!	!	!LO:LB:g=original	!	!	!	!	!	!	!	!	!	!	!	!	!
!LO:LB:g=original	!	!	!	!	!	!	!	!	!	!	!	!	!	!	!	!	!
8A\L	.	8a/L	.	8cc#\L	.	4r	.	4r	.	4r	.	4r	.	2.ryy	2.ryy	2.ryy	2.ryy
8C#/	.	16c#/L	.	(16a\L	.	.	.	.	.	.	.	.	.	.	.	.	.
.	.	16d/	.	16b\	.	.	.	.	.	.	.	.	.	.	.	.	.
!	!	!	!	!	!	!LO:TX:a:i:t=Tutti	!	!	!	!	!	!	!	!	!	!	!
8E/J	.	16e/	.	16cc#\	.	8r	.	8r	.	8r	.	8r	.	.	.	.	.
.	.	16d/JJ	.	16b\JJ)	.	.	.	.	.	.	.	.	.	.	.	.	.
!	!	!	!	!	!LO:DY:t=for	!	!	!	!	!	!	!	!	!	!	!	!
4AA/	.	4c#/	.	4a/	f	4r	.	4r	.	4r	.	4r	.	.	.	.	.
!	!	!	!LO:DY:t=for	!	!	!	!	!	!	!	!	!	!	!	!	!	!
8r	.	8a\	f	8a/	.	8A\	Re-	8A\	Re-	8a\	Re-	8a\	Re-	.	.	.	.
=74	=74	=74	=74	=74	=74	=74	=74	=74	=74	=74	=74	=74	=74	=74	=74	=74	=74
!LO:TX:a:i:t=Tutti	!	!LO:TX:t=P:problem=mixed beam	!	!LO:TX:t=P:problem=mixed beam	!	!	!	!	!	!	!	!	!	!	!	!	!
4D\	.	8.dd\L	.	8.dd\L	.	4d\	-gi-	4d\	-gi-	4dd\	-gi-	4dd\	-gi-	2.ryy	2.ryy	2.ryy	2.ryy
.	.	16d/K	.	16d/K	.	.	.	.	.	.	.	.	.	.	.	.	.
8D\	.	8e/J	.	8e/J	.	8D\	-na	8D/	-na	8d\	-na	8d/	-na	.	.	.	.
*	*	*	*	*	*	*	*ij	*	*ij	*	*	*	*ij	*	*	*	*
8D\L	.	8f#/L	.	8f#/L	.	8F#\	Re-	8F#/	Re-	8f#\	San-	8f#/	Re-	.	.	.	.
8D\	.	8e/	.	8e/	.	8E\	-gi-	8E/	-gi-	8e\	-cto-	8e/	-gi-	.	.	.	.
8D\J	.	8d/J	.	8d/J	.	8D\	-na	8D/	-na	8d\	-rum	8d/	-na	.	.	.	.
*	*	*	*	*	*	*	*Xij	*	*Xij	*	*	*	*Xij	*	*	*	*
=75	=75	=75	=75	=75	=75	=75	=75	=75	=75	=75	=75	=75	=75	=75	=75	=75	=75
4C#/	.	8c#/L	.	8.a/L	.	8.A\L	Mar-	8.A\L	Mar-	8.a\L	Om-	8.a\L	Mar-	2.ryy	2.ryy	2.ryy	2.ryy
.	.	8d/	.	.	.	.	.	.	.	.	.	.	.	.	.	.	.
.	.	.	.	16b/K	.	16B\K	.	16B\Jk	.	16b\Jk	.	16b\Jk	.	.	.	.	.
8BB/	x 6\	8B/J	.	8g#X/J	.	8G#X\J	-ty-	8G#X/	-ty-	8g#X\	-ni-	8g#X\	-ty-	.	.	.	.
4AA/	.	4c#/	.	4a/	.	4A\	-rum	4A\	-rum	4a\	-um	4a\	-rum	.	.	.	.
!	!	!	!	!	!LO:DY:t=pia	!	!	!	!	!	!	!	!	!	!	!	!
8r	.	8c#/	.	8aa\	p	8A\	Re-	8r	.	8r	.	8r	.	.	.	.	.
=76	=76	=76	=76	=76	=76	=76	=76	=76	=76	=76	=76	=76	=76	=76	=76	=76	=76
!LO:TX:a:i:t=Solo	!	!LO:TX:t=P:p=po:problem	!LO:DY:t=po&colon;	!	!	!LO:LB:g=original	!	!LO:LB:g=original	!	!	!	!	!	!	!	!	!
8AA/L	.	8A/L	p	8ggn\L	.	8Gn\L	-gi-	0.r	.	0.r	.	0.r	.	2.ryy	2.ryy	2.ryy	2.ryy
8AA/	.	(16A/L	.	8ee\	.	8E\	-na	.	.	.	.	.	.	.	.	.	.
.	.	16B/	.	.	.	.	.	.	.	.	.	.	.	.	.	.	.
8AA/J	.	16c#/)	.	8cc#\J	.	8C#\J	o-	.	.	.	.	.	.	.	.	.	.
.	.	16d/JJ	.	.	.	.	.	.	.	.	.	.	.	.	.	.	.
8AA/L	.	8e/L	.	4a\	.	4AA/	-ra	.	.	.	.	.	.	.	.	.	.
8C#/	x 6	8c#/	.	.	.	.	.	.	.	.	.	.	.	.	.	.	.
8AA/J	.	8e/J	.	8gg\	.	8G\	pro	.	.	.	.	.	.	.	.	.	.
=77	=77	=77	=77	=77	=77	=77	=77	=77	=77	=77	=77	=77	=77	=77	=77	=77	=77
8D\L	.	8.d/L	.	8.ff#\L	.	8.F#\L	no-	.	.	.	.	.	.	2.ryy	2.ryy	2.ryy	2.ryy
8F#\	x 6	.	.	.	.	.	.	.	.	.	.	.	.	.	.	.	.
.	.	16e/K	.	16gg\K	.	16G\Jk	.	.	.	.	.	.	.	.	.	.	.
8A\J	.	8f#/J	.	8aa\J	.	8A\	-bis	.	.	.	.	.	.	.	.	.	.
!	!	!LO:LB:g=original	!	!	!	!	!	!	!	!	!	!	!	!	!	!	!
4D\	.	8r	.	8r	.	8r	.	.	.	.	.	.	.	.	.	.	.
.	.	8f#/L	.	16aa\LL	.	8r	.	.	.	.	.	.	.	.	.	.	.
.	.	.	.	16ff#\	.	.	.	.	.	.	.	.	.	.	.	.	.
8r	.	8a/J	.	16dd\	.	8A\	Re-	.	.	.	.	.	.	.	.	.	.
.	.	.	.	16a\JJ	.	.	.	.	.	.	.	.	.	.	.	.	.
=78	=78	=78	=78	=78	=78	=78	=78	=78	=78	=78	=78	=78	=78	=78	=78	=78	=78
8AA/L	.	8A/L	.	8ee\L	.	8e\L	-gi-	.	.	.	.	.	.	2.ryy	2.ryy	2.ryy	2.ryy
8AA/	.	16A/L	.	8cc#\	.	8c#\J	.	.	.	.	.	.	.	.	.	.	.
.	.	(16B/	.	.	.	.	.	.	.	.	.	.	.	.	.	.	.
8AA/J	.	16c#/	.	8a\J	.	8A\	-na	.	.	.	.	.	.	.	.	.	.
.	.	16d/JJ)	.	.	.	.	.	.	.	.	.	.	.	.	.	.	.
!	!	!	!	!LO:LB:g=original	!	!	!	!	!	!	!	!	!	!	!	!	!
8AA/L	.	8e/L	.	4e/	.	4E\	Con-	.	.	.	.	.	.	.	.	.	.
8C#/	x 6	8c#/	.	.	.	.	.	.	.	.	.	.	.	.	.	.	.
8AA/J	.	8e/J	.	8g/	.	8G\	-fes-	.	.	.	.	.	.	.	.	.	.
=79	=79	=79	=79	=79	=79	=79	=79	=79	=79	=79	=79	=79	=79	=79	=79	=79	=79
!LO:LB:g=original	!	!	!	!	!	!	!	!	!	!	!	!	!	!	!	!	!
8D\L	.	8d/L	.	8f#/L	.	8F#\	-so-	.	.	.	.	.	.	2.ryy	2.ryy	2.ryy	2.ryy
8F#\	x 6	(16f#/L	.	16d/L	.	16D\LL	.	.	.	.	.	.	.	.	.	.	.
.	.	16g/	.	16e/	.	16E\	.	.	.	.	.	.	.	.	.	.	.
8A\J	.	16a/	.	16f#/	.	16F#\	.	.	.	.	.	.	.	.	.	.	.
.	.	16g/JJ)	.	16e/JJ	.	16E\JJ	.	.	.	.	.	.	.	.	.	.	.
4D\	.	4f#/	.	4d/	.	4D\	-rum	.	.	.	.	.	.	.	.	.	.
!	!	!	!	!	!LO:DY:t=pia	!	!	!	!	!	!	!	!	!	!	!	!
8r	.	8a/	.	8a/	p	8A\	Re-	.	.	.	.	.	.	.	.	.	.
=80	=80	=80	=80	=80	=80	=80	=80	=80	=80	=80	=80	=80	=80	=80	=80	=80	=80
!	!	!LO:SIC:v:s=4.d/	!LO:DY:t=po.	!	!	!LO:LB:g=original	!	!	!	!	!	!	!	!	!	!	!
4D\	.	4.c#/	p	4.dd\	.	8.d\L	-gi-	0.r	.	0.r	.	0.r	.	2.ryy	2.ryy	2.ryy	2.ryy
.	.	.	.	.	.	16A\Jk	.	.	.	.	.	.	.	.	.	.	.
8r	.	.	.	.	.	8F#\	-na	.	.	.	.	.	.	.	.	.	.
8D\L	x 8	4.cn/	.	4.ff#\	.	8D\L	Con-	.	.	.	.	.	.	.	.	.	.
8F#\	.	.	.	.	.	8A\J	.	.	.	.	.	.	.	.	.	.	.
8D\J	x n7	.	.	.	.	8cn\	-feſ-	.	.	.	.	.	.	.	.	.	.
=81	=81	=81	=81	=81	=81	=81	=81	=81	=81	=81	=81	=81	=81	=81	=81	=81	=81
!	!	!	!	!LO:TX:t=P:problem=mixed beam	!	!	!	!	!	!	!	!	!	!	!	!	!
4G\	.	4B/	.	8gg\L	.	8B\	-so-	.	.	.	.	.	.	2.ryy	2.ryy	2.ryy	2.ryy
.	.	.	.	8B/	.	16G\LL	.	.	.	.	.	.	.	.	.	.	.
.	.	.	.	.	.	16A\	.	.	.	.	.	.	.	.	.	.	.
8r	.	8d/	.	8d/J	.	16B\	.	.	.	.	.	.	.	.	.	.	.
.	.	.	.	.	.	16A\JJ	.	.	.	.	.	.	.	.	.	.	.
4r	.	4G/	.	4G/	.	4G\	-rum	.	.	.	.	.	.	.	.	.	.
8r	.	8b\	.	8b\	.	8B\	Re-	.	.	.	.	.	.	.	.	.	.
=82	=82	=82	=82	=82	=82	=82	=82	=82	=82	=82	=82	=82	=82	=82	=82	=82	=82
4E\	x #	4.e/	.	4.ee\	.	8.e\L	-gi-	.	.	.	.	.	.	2.ryy	2.ryy	2.ryy	2.ryy
.	.	.	.	.	.	16B\Jk	.	.	.	.	.	.	.	.	.	.	.
8r	.	.	.	.	.	8G#X\	-na	.	.	.	.	.	.	.	.	.	.
*	*	*	*	*	*	*	*ij	*	*	*	*	*	*	*	*	*	*
4E\	.	4.d/	.	4.gg#X\	.	8E\	Re-	.	.	.	.	.	.	.	.	.	.
.	.	.	.	.	.	8B\	-gi-	.	.	.	.	.	.	.	.	.	.
8r	.	.	.	.	.	8d\	-na	.	.	.	.	.	.	.	.	.	.
*	*	*	*	*	*	*	*Xij	*	*	*	*	*	*	*	*	*	*
=83	=83	=83	=83	=83	=83	=83	=83	=83	=83	=83	=83	=83	=83	=83	=83	=83	=83
!	!	!LO:LB:g=original	!	!LO:TX:t=P:problem=mixed beam	!	!	!	!	!	!	!	!	!	!	!	!	!
4A\	.	8c#/L	.	8aa\L	.	8c#X\	Vir-	.	.	.	.	.	.	2.ryy	2.ryy	2.ryy	2.ryy
.	.	8A/	.	8c#X/	.	16A\LL	-gi-	.	.	.	.	.	.	.	.	.	.
.	.	.	.	.	.	16B\	.	.	.	.	.	.	.	.	.	.	.
8r	.	8A/J	.	8e/J	.	16c#\	.	.	.	.	.	.	.	.	.	.	.
.	.	.	.	.	.	16B\JJ	.	.	.	.	.	.	.	.	.	.	.
!	!	!	!	!	!	!LO:LB:g=original	!	!	!	!	!	!	!	!	!	!	!
4r	.	4A/	.	8A/	.	8A\	-num	.	.	.	.	.	.	.	.	.	.
.	.	.	.	8r	.	8r	.	.	.	.	.	.	.	.	.	.	.
8r	.	8d/	.	(8dd\	.	8A\	O-	.	.	.	.	.	.	.	.	.	.
=84	=84	=84	=84	=84	=84	=84	=84	=84	=84	=84	=84	=84	=84	=84	=84	=84	=84
8G\	.	8d/	.	8b\)	.	8B\L	.	0.r	.	0.r	.	0.r	.	2.ryy	2.ryy	2.ryy	2.ryy
8r	.	8r	.	8r	.	16G\L	.	.	.	.	.	.	.	.	.	.	.
.	.	.	.	.	.	16F#\	.	.	.	.	.	.	.	.	.	.	.
8r	.	8r	.	8r	.	16E\	.	.	.	.	.	.	.	.	.	.	.
.	.	.	.	.	.	16D\JJ	.	.	.	.	.	.	.	.	.	.	.
!	!	!	!	!	!	!LO:TX:t=P:problem=mixed beam	!	!	!	!	!	!	!	!	!	!	!
8C#/	.	8gn/L	.	(8ee\L	.	8C#/L	.	.	.	.	.	.	.	.	.	.	.
8r	.	8b/J	.	8gg\J)	.	16e\L	.	.	.	.	.	.	.	.	.	.	.
.	.	.	.	.	.	16d\	.	.	.	.	.	.	.	.	.	.	.
8r	.	8r	.	8r	.	16c#\	.	.	.	.	.	.	.	.	.	.	.
.	.	.	.	.	.	16B\JJ	.	.	.	.	.	.	.	.	.	.	.
=85	=85	=85	=85	=85	=85	=85	=85	=85	=85	=85	=85	=85	=85	=85	=85	=85	=85
!	!	!	!	!LO:LB:g=original	!	!	!	!	!	!	!	!	!	!	!	!	!
8F#\	.	8f#/	.	8dd\	.	8A\L	.	.	.	.	.	.	.	2.ryy	2.ryy	2.ryy	2.ryy
8r	.	8r	.	8r	.	16F#\L	.	.	.	.	.	.	.	.	.	.	.
.	.	.	.	.	.	16E\	.	.	.	.	.	.	.	.	.	.	.
8r	.	8r	.	8r	.	16D\	.	.	.	.	.	.	.	.	.	.	.
.	.	.	.	.	.	16C#\JJ	.	.	.	.	.	.	.	.	.	.	.
!	!	!	!	!	!	!LO:TX:t=P:problem=mixed beam	!	!	!	!	!	!	!	!	!	!	!
8BB/	.	8f#/L	.	(8dd\L	.	8BB/L	.	.	.	.	.	.	.	.	.	.	.
8r	.	8a/J	.	8ff#\J)	.	16d\L	.	.	.	.	.	.	.	.	.	.	.
.	.	.	.	.	.	16c#\	.	.	.	.	.	.	.	.	.	.	.
8r	.	8r	.	8r	.	16B\	.	.	.	.	.	.	.	.	.	.	.
.	.	.	.	.	.	16A\JJ	.	.	.	.	.	.	.	.	.	.	.
=86	=86	=86	=86	=86	=86	=86	=86	=86	=86	=86	=86	=86	=86	=86	=86	=86	=86
!LO:LB:g=original	!	!	!	!	!	!	!	!	!	!	!	!	!	!	!	!	!
8E\	.	8e/	.	8cc#\	.	8G\L	.	.	.	.	.	.	.	2.ryy	2.ryy	2.ryy	2.ryy
8r	.	8r	.	8r	.	16E\L	.	.	.	.	.	.	.	.	.	.	.
.	.	.	.	.	.	16D\	.	.	.	.	.	.	.	.	.	.	.
8r	.	8r	.	8r	.	16C#\	.	.	.	.	.	.	.	.	.	.	.
.	.	.	.	.	.	16BB\JJ	.	.	.	.	.	.	.	.	.	.	.
!	!	!	!	!	!	!LO:TX:t=P:problem=mixed beam	!	!	!	!	!	!	!	!	!	!	!
8AA/	.	8e/L	.	8cc#\L	.	8AA/L	.	.	.	.	.	.	.	.	.	.	.
8r	.	8g/J	.	8ee\J	.	16c#\L	.	.	.	.	.	.	.	.	.	.	.
.	.	.	.	.	.	16B\	.	.	.	.	.	.	.	.	.	.	.
8r	.	8r	.	8r	.	16A\	.	.	.	.	.	.	.	.	.	.	.
.	.	.	.	.	.	16G\JJ	.	.	.	.	.	.	.	.	.	.	.
=87	=87	=87	=87	=87	=87	=87	=87	=87	=87	=87	=87	=87	=87	=87	=87	=87	=87
8D\	.	4a/	.	4ff#\	.	8F#\L	.	.	.	.	.	.	.	2.ryy	2.ryy	2.ryy	2.ryy
8r	.	.	.	.	.	16D\L	.	.	.	.	.	.	.	.	.	.	.
.	.	.	.	.	.	16E\	.	.	.	.	.	.	.	.	.	.	.
8r	.	8r	.	8r	.	16F#\	.	.	.	.	.	.	.	.	.	.	.
.	.	.	.	.	.	16G\JJ	.	.	.	.	.	.	.	.	.	.	.
!	!	!	!	!	!	!LO:LB:g=original	!	!	!	!	!	!	!	!	!	!	!
8F#\	.	4a/	.	4ff#\	.	16A\LL	.	.	.	.	.	.	.	.	.	.	.
.	.	.	.	.	.	16G\	.	.	.	.	.	.	.	.	.	.	.
8r	.	.	.	.	.	16A\	.	.	.	.	.	.	.	.	.	.	.
.	.	.	.	.	.	16B\	.	.	.	.	.	.	.	.	.	.	.
8r	.	8r	.	8r	.	16c#\	.	.	.	.	.	.	.	.	.	.	.
.	.	.	.	.	.	16d\JJ	.	.	.	.	.	.	.	.	.	.	.
=88	=88	=88	=88	=88	=88	=88	=88	=88	=88	=88	=88	=88	=88	=88	=88	=88	=88
4.A\	.	4a/	.	8.cc#\L	.	4A\	-ra	0.r	.	0.r	.	0.r	.	2.ryy	2.ryy	2.ryy	2.ryy
.	.	.	.	16aa\K	.	.	.	.	.	.	.	.	.	.	.	.	.
.	.	8f#/	.	8ff#\J	.	8D\	pro	.	.	.	.	.	.	.	.	.	.
8AA/L	.	4e/	.	4cc#\	.	4C#\	no-	.	.	.	.	.	.	.	.	.	.
8AA/	.	.	.	.	.	.	.	.	.	.	.	.	.	.	.	.	.
8AA/J	.	8e/	.	8gg\	.	8G\	.	.	.	.	.	.	.	.	.	.	.
=89	=89	=89	=89	=89	=89	=89	=89	=89	=89	=89	=89	=89	=89	=89	=89	=89	=89
!	!	!LO:LB:g=original	!	!	!	!	!	!	!	!	!	!	!	!	!	!	!
8D\	.	4a/	.	4ff#\	.	8F#\	-bis	.	.	.	.	.	.	2.ryy	2.ryy	2.ryy	2.ryy
8r	.	.	.	.	.	16D\LL	o-	.	.	.	.	.	.	.	.	.	.
.	.	.	.	.	.	16E\	.	.	.	.	.	.	.	.	.	.	.
8r	.	8r	.	8r	.	16F#\	.	.	.	.	.	.	.	.	.	.	.
.	.	.	.	.	.	16G\JJ	.	.	.	.	.	.	.	.	.	.	.
8F#\	.	4a/	.	4ff#\	.	16A\LL	.	.	.	.	.	.	.	.	.	.	.
.	.	.	.	.	.	16G\	.	.	.	.	.	.	.	.	.	.	.
8r	.	.	.	.	.	16A\	.	.	.	.	.	.	.	.	.	.	.
.	.	.	.	.	.	16B\	.	.	.	.	.	.	.	.	.	.	.
8r	.	8r	.	8r	.	16c#\	.	.	.	.	.	.	.	.	.	.	.
.	.	.	.	.	.	16d\JJ	.	.	.	.	.	.	.	.	.	.	.
=90	=90	=90	=90	=90	=90	=90	=90	=90	=90	=90	=90	=90	=90	=90	=90	=90	=90
!	!	!	!	!LO:TX:t=P:problem=mixed beam	!	!	!	!	!	!	!	!	!	!	!	!	!
4A\	.	4a/	.	8.a/L	.	4A\	-ra	.	.	.	.	.	.	2.ryy	2.ryy	2.ryy	2.ryy
.	.	.	.	16aa\K	.	.	.	.	.	.	.	.	.	.	.	.	.
8r	.	8f#/	.	8dd\J	.	8D\	pro	.	.	.	.	.	.	.	.	.	.
8AA/L	.	4e/	.	4cc#\	.	4C#\	no-	.	.	.	.	.	.	.	.	.	.
8AA/	.	.	.	.	.	.	.	.	.	.	.	.	.	.	.	.	.
8AA/J	.	8c#/	.	8gg\	.	8G\	.	.	.	.	.	.	.	.	.	.	.
=91	=91	=91	=91	=91	=91	=91	=91	=91	=91	=91	=91	=91	=91	=91	=91	=91	=91
!	!	!LO:TX:t=P:problem=mixed beam	!	!	!	!	!	!	!	!	!	!	!	!	!	!	!
4D\	.	8.d/L	.	8.ff#\L	.	4F#\	-bis	.	.	.	.	.	.	2.ryy	2.ryy	2.ryy	2.ryy
.	.	16cc#\K	.	16ee\K	.	.	.	.	.	.	.	.	.	.	.	.	.
8r	.	8dd\J	.	8ff#\J	.	8r	.	.	.	.	.	.	.	.	.	.	.
!	!	!	!	!LO:LB:g=original	!	!	!	!	!	!	!	!	!	!	!	!	!
4BB/	x 6\	8dd\L	.	8ff#\L	.	8G#X\	O-	.	.	.	.	.	.	.	.	.	.
.	.	8cc#\	.	8ee\	.	8G#\	-ra	.	.	.	.	.	.	.	.	.	.
8E\	x #	8b\J	.	8dd\J	.	8G#\	pro	.	.	.	.	.	.	.	.	.	.
=92	=92	=92	=92	=92	=92	=92	=92	=92	=92	=92	=92	=92	=92	=92	=92	=92	=92
!LO:LB:g=original	!	!	!	!	!	!LO:LB:g=original	!	!	!	!	!	!	!	!	!	!	!
8AA/L	.	8a\L	.	8cc#\L	.	4.A\	no-	0.r	.	0.r	.	0.r	.	2.ryy	2.ryy	2.ryy	2.ryy
8AA/	.	8cc#\	.	8cc#\	.	.	.	.	.	.	.	.	.	.	.	.	.
8AA/J	.	8a\J	.	8cc#\J	.	.	.	.	.	.	.	.	.	.	.	.	.
4AA/	.	4a\	.	4cc#\	.	4A\	-bis	.	.	.	.	.	.	.	.	.	.
8r	.	8d/	.	8dd\	.	8d\	O-	.	.	.	.	.	.	.	.	.	.
=93	=93	=93	=93	=93	=93	=93	=93	=93	=93	=93	=93	=93	=93	=93	=93	=93	=93
8G\	.	8.G/L	.	8.b\L	.	8B\L	.	.	.	.	.	.	.	2.ryy	2.ryy	2.ryy	2.ryy
8r	.	.	.	.	.	8G\J	.	.	.	.	.	.	.	.	.	.	.
.	.	16B/K	.	16g\K	.	.	.	.	.	.	.	.	.	.	.	.	.
8r	.	8d/J	.	8dd\J	.	8d\	-ra	.	.	.	.	.	.	.	.	.	.
!	!	!LO:SIC:v:s=8.d/L:t=lub 8f#/L	!	!LO:TX:t=P:problem=mixed beam	!	!	!	!	!	!	!	!	!	!	!	!	!
8F#\	x 6	8.g/L	.	8.a/L	.	8A\L	o-	.	.	.	.	.	.	.	.	.	.
8r	.	.	.	.	.	8F#\J	.	.	.	.	.	.	.	.	.	.	.
.	.	16B/K	.	16f#/K	.	.	.	.	.	.	.	.	.	.	.	.	.
8r	.	8d/J	.	8dd\J	.	8d\	-ra	.	.	.	.	.	.	.	.	.	.
=94	=94	=94	=94	=94	=94	=94	=94	=94	=94	=94	=94	=94	=94	=94	=94	=94	=94
8G\	.	8.G/L	.	8.b\L	.	8B\L	pro	.	.	.	.	.	.	2.ryy	2.ryy	2.ryy	2.ryy
8r	.	.	.	.	.	8G\J	.	.	.	.	.	.	.	.	.	.	.
.	.	16B/K	.	16g\K	.	.	.	.	.	.	.	.	.	.	.	.	.
8r	.	8d/J	.	8dd\J	.	8d\	no-	.	.	.	.	.	.	.	.	.	.
!LO:TX:t=P:problem=takt niepełny	!	!LO:LB:g=original	!	!	!	!	!	!	!	!	!	!	!	!	!	!	!
8F#\	x 6	8f#/	.	4a\	.	4A\	-bis	.	.	.	.	.	.	.	.	.	.
4F#\yy	.	8r	.	.	.	.	.	.	.	.	.	.	.	.	.	.	.
!	!	!	!LO:DY:t=for	!	!	!	!	!	!	!	!	!	!	!	!	!	!
.	.	8d/	f	8dd\	.	8d\	O-	.	.	.	.	.	.	.	.	.	.
=95	=95	=95	=95	=95	=95	=95	=95	=95	=95	=95	=95	=95	=95	=95	=95	=95	=95
8G\L	.	8.g/L	.	8.b\L	.	8B\L	-ra	.	.	.	.	.	.	2.ryy	2.ryy	2.ryy	2.ryy
8G\	.	.	.	.	.	8G\J	.	.	.	.	.	.	.	.	.	.	.
!	!	!	!	!	!LO:DY:t=for	!	!	!	!	!	!	!	!	!	!	!	!
.	.	16b/K	.	16gg\K	f	.	.	.	.	.	.	.	.	.	.	.	.
8G\J	.	8a/J	.	8ff#\J	.	8F#\	pro	.	.	.	.	.	.	.	.	.	.
8A\L	.	8g/L	.	8ee\L	.	8E\L	no-	.	.	.	.	.	.	.	.	.	.
8A\	x 4	8f#/	.	8dd\	.	8D\J	.	.	.	.	.	.	.	.	.	.	.
8A\J	x 3	8e/J	.	8cc#\J	.	8C#\	-bis	.	.	.	.	.	.	.	.	.	.
=96	=96	=96	=96	=96	=96	=96	=96	=96	=96	=96	=96	=96	=96	=96	=96	=96	=96
!	!	!LO:TX:t=P:problem=mixed beam	!	!	!	!	!	!	!	!	!	!	!	!	!	!	!
4D\	.	8.f#/L	.	8.dd\L	.	8D\L	O-	0.r	.	0.r;	.	0.r	.	2.ryy	2.ryy	2.ryy	2.ryy
.	.	.	.	.	.	8B\J	.	.	.	.	.	.	.	.	.	.	.
.	.	16gg\K	.	16bb\K	.	.	.	.	.	.	.	.	.	.	.	.	.
8r	.	8ff#\J	.	8aa\J	.	8A\	-ra	.	.	.	.	.	.	.	.	.	.
8G\L	.	8ee\L	.	8gg\L	.	8G\	pro	.	.	.	.	.	.	.	.	.	.
8E\	.	8dd\	.	8ff#\	.	8F#\L	no-	.	.	.	.	.	.	.	.	.	.
8A\J	x 7	8cc#\J	.	8ee\J	.	8E\J	.	.	.	.	.	.	.	.	.	.	.
=97	=97	=97	=97	=97	=97	=97	=97	=97	=97	=97	=97	=97	=97	=97	=97	=97	=97
!	!	!	!	!LO:LB:g=original	!	!	!	!	!	!	!	!	!	!	!	!	!
4D\	.	8.dd\L	.	8.ff#\L	.	4D\	-bis	.	.	.	.	.	.	2.ryy	2.ryy	2.ryy	2.ryy
.	.	16b\K	.	16gg\K	.	.	.	.	.	.	.	.	.	.	.	.	.
8r	.	8a\J	.	8ff#\J	.	8r	.	.	.	.	.	.	.	.	.	.	.
.	.	.	.	8qff#/	.	.	.	.	.	.	.	.	.	.	.	.	.
!	!	!	!	!	!	!LO:LB:g=original	!	!	!	!	!	!	!	!	!	!	!
4G\	.	8g/L	.	8ee\L	.	4r	.	.	.	.	.	.	.	.	.	.	.
.	.	8f#/	.	8dd\	.	.	.	.	.	.	.	.	.	.	.	.	.
8A\	x 7	8e/J	.	8cc#\J	.	8r	.	.	.	.	.	.	.	.	.	.	.
=98	=98	=98	=98	=98	=98	=98	=98	=98	=98	=98	=98	=98	=98	=98	=98	=98	=98
!LO:LB:g=original	!	!	!	!	!	!	!	!	!	!	!	!	!	!	!	!	!
!LO:TX:t=P:problem=mixed beam	!	!	!	!	!	!LO:TX:t=P:problem=brak jednego taktu	!	!	!	!	!	!	!	!	!	!	!
8D/L	.	8f#|/L	.	8dd|\L	.	2.ryy	.	.	.	.	.	.	.	2.ryy	2.ryy	2.ryy	2.ryy
8d\J	.	(16f#/L	.	(16dd\L	.	.	.	.	.	.	.	.	.	.	.	.	.
.	.	16g/	.	16ee\	.	.	.	.	.	.	.	.	.	.	.	.	.
8r	.	16a/)	.	16ff#\	.	.	.	.	.	.	.	.	.	.	.	.	.
.	.	16g/JJ	.	16ee\JJ)	.	.	.	.	.	.	.	.	.	.	.	.	.
!LO:TX:t=P:problem=mixed beam	!	!	!	!	!	!	!	!	!	!	!	!	!	!	!	!	!
8BB/L	.	8f#'/L	.	(8dd|\L	.	.	.	.	.	.	.	.	.	.	.	.	.
8B\J	.	(16f#/L	.	(16dd\L)	.	.	.	.	.	.	.	.	.	.	.	.	.
.	.	16g/	.	16ee\	.	.	.	.	.	.	.	.	.	.	.	.	.
8r	.	16a/)	.	16ff#\	.	.	.	.	.	.	.	.	.	.	.	.	.
.	.	16g/JJ	.	16ee\JJ)	.	.	.	.	.	.	.	.	.	.	.	.	.
=99	=99	=99	=99	=99	=99	=99	=99	=99	=99	=99	=99	=99	=99	=99	=99	=99	=99
!LO:TX:t=P:problem=mixed beam	!	!LO:LB:g=original	!	!	!	!	!	!	!	!	!	!	!	!	!	!	!
8AA/L	6 4	8f#|/L	.	8dd|\L	.	4r	.	.	.	.	.	.	.	2.ryy	2.ryy	2.ryy	2.ryy
8A\J	.	(16f#/L	.	(16dd\L	.	.	.	.	.	.	.	.	.	.	.	.	.
.	.	16g/	.	16ee\	.	.	.	.	.	.	.	.	.	.	.	.	.
8r	.	16a/)	.	16ff#\	.	8r	.	.	.	.	.	.	.	.	.	.	.
.	.	16g/JJ	.	16ee\JJ)	.	.	.	.	.	.	.	.	.	.	.	.	.
!LO:TX:t=P:problem=mixed beam	!	!	!	!	!	!	!	!	!	!	!	!	!	!	!	!	!
8GG#X/L	x 5	8f#|/L	.	8dd|\L	.	4r	.	.	.	.	.	.	.	.	.	.	.
8G#y\J	.	16f#/L	.	(16dd\L	.	.	.	.	.	.	.	.	.	.	.	.	.
.	.	(16g/	.	16ee\	.	.	.	.	.	.	.	.	.	.	.	.	.
8r	.	16a/	.	16ff#\	.	8A\	pro	.	.	.	.	.	.	.	.	.	.
.	.	16g/JJ)	.	16ee\JJ)	.	.	.	.	.	.	.	.	.	.	.	.	.
=100	=100	=100	=100	=100	=100	=100	=100	=100	=100	=100	=100	=100	=100	=100	=100	=100	=100
!	!	!	!	!	!	!	!	!	!	!LO:LB:g=original	!	!LO:LB:g=original	!	!	!	!	!
4.AA;/	.	4.f#;/	.	4dd;\	.	4A;\	no-	4r;	.	4r	.	4r	.	2.ryy	2.ryy	2.ryy	2.ryy
.	.	.	.	8r	.	8D\	-bis	8r	.	8r	.	8r	.	.	.	.	.
8r	.	8r	.	4r	.	4r	.	4r	.	4r	.	4r	.	.	.	.	.
8r	.	8r	.	.	.	.	.	.	.	.	.	.	.	.	.	.	.
!LO:TX:a:i:t=Tutti	!	!	!LO:DY:t=for	!	!LO:DY:t=for&colon;	!	!	!	!	!	!	!	!	!	!	!	!
8AA/	.	8f#/	f	8a/	f	8A\	Re-	8A\	Re-	8a\	Re-	8a\	Re-	.	.	.	.
=101	=101	=101	=101	=101	=101	=101	=101	=101	=101	=101	=101	=101	=101	=101	=101	=101	=101
!	!	!LO:TX:t=P:problem=mixed beam	!	!LO:TX:t=P:problem=mixed beam	!	!	!	!	!	!	!	!	!	!	!	!	!
4D\	.	8.dd\L	.	8.dd\L	.	4d\	-gi-	4d\	-gi-	4dd\	-gi-	4dd\	-gi-	2.ryy	2.ryy	2.ryy	2.ryy
.	.	16d/K	.	16d/K	.	.	.	.	.	.	.	.	.	.	.	.	.
8D\	.	8e/J	.	8e/J	.	8D\	-na	8D/	-na	8d\	-na	8d/	-na	.	.	.	.
8D\L	.	8.f#/L	.	8f#/L	.	8F#\	San-	8F#/	San-	8f#\	San-	8f#/	San-	.	.	.	.
8D\	.	.	.	8e/	.	8E\	-cto-	8E/	-cto-	8e\	-cto-	8e/	-cto-	.	.	.	.
.	.	16e/K	.	.	.	.	.	.	.	.	.	.	.	.	.	.	.
8D\J	.	8d/J	.	8d/J	.	8D\	-rum	8D/	-rum	8d\	-rum	8d/	-rum	.	.	.	.
=102	=102	=102	=102	=102	=102	=102	=102	=102	=102	=102	=102	=102	=102	=102	=102	=102	=102
!	!	!	!	!LO:LB:g=original	!	!	!	!	!	!	!	!	!	!	!	!	!
4C#/	x 6	8.c#/L	.	8.a/L	.	8.A\L	Om-	8.A\L	om-	8.a\L	om-	8.a\L	om-	2.ryy	2.ryy	2.ryy	2.ryy
.	.	16d/K	.	16b/K	.	16B\K	.	16B\Jk	.	16b\Jk	.	16b\K	.	.	.	.	.
8BB/	x 6\	8B/J	.	8g#X/J	.	8G#X\J	-ni-	8G#X/	-ni-	8g#X\	-ni-	8g#X\J	-ni-	.	.	.	.
4AA/	.	4c#/	.	4a/	.	4A\	-um	4A\	-um	4a\	-um	4a\	-um	.	.	.	.
8r	.	8a/	.	8aa\	.	8r	.	8r	.	8r	.	8r	.	.	.	.	.
=103	=103	=103	=103	=103	=103	=103	=103	=103	=103	=103	=103	=103	=103	=103	=103	=103	=103
!LO:TX:a:i:t=Solo	!	!	!	!	!	!	!	!	!	!	!	!	!	!	!	!	!
8AA/L	.	16e/LL	.	16ggn\LL	.	1.r	.	1.r	.	2.r	.	2.r	.	2.ryy	2.ryy	2.ryy	2.ryy
.	.	16a/	.	16ff#\	.	.	.	.	.	.	.	.	.	.	.	.	.
8AA/	.	16e/	.	16ee\	.	.	.	.	.	.	.	.	.	.	.	.	.
.	.	16a/	.	16dd\	.	.	.	.	.	.	.	.	.	.	.	.	.
8AA/J	.	16e/	.	16cc#\	.	.	.	.	.	.	.	.	.	.	.	.	.
.	.	16a/JJ	.	16b\JJ	.	.	.	.	.	.	.	.	.	.	.	.	.
!	!	!LO:LB:g=original	!	!	!	!	!	!	!	!	!	!	!	!	!	!	!
!	!	!LO:TX:t=P:N:vis=2.):problem=nuty tremola puste w środku (LO	!	!	!	!	!	!	!	!	!	!	!	!	!	!	!
16AA/LL	.	16e/LL	.	4a\	.	.	.	.	.	.	.	.	.	.	.	.	.
16BB/	.	16a/	.	.	.	.	.	.	.	.	.	.	.	.	.	.	.
16C#/	.	16e/	.	.	.	.	.	.	.	.	.	.	.	.	.	.	.
16D/	.	16a/	.	.	.	.	.	.	.	.	.	.	.	.	.	.	.
16E/	.	16e/	.	8gg\	.	.	.	.	.	.	.	.	.	.	.	.	.
16C#/JJ	.	16a/JJ	.	.	.	.	.	.	.	.	.	.	.	.	.	.	.
*	*	*Xtremolo	*	*	*	*	*	*	*	*	*	*	*	*	*	*	*
=104	=104	=104	=104	=104	=104	=104	=104	=104	=104	=104	=104	=104	=104	=104	=104	=104	=104
!LO:LB:g=original	!	!	!	!	!	!	!	!	!	!	!	!	!	!	!	!	!
8D\L	.	(8d/L	.	8ff#|\L	.	.	.	.	.	4r	.	4r	.	2.ryy	2.ryy	2.ryy	2.ryy
8F#\	x 6	16f#/L)	.	(16dd\L	.	.	.	.	.	.	.	.	.	.	.	.	.
.	.	(16g/	.	16ee\	.	.	.	.	.	.	.	.	.	.	.	.	.
8A\J	.	16a/	.	16ff#\	.	.	.	.	.	8r	.	8r	.	.	.	.	.
.	.	16g/JJ)	.	16ee\JJ)	.	.	.	.	.	.	.	.	.	.	.	.	.
4D\	.	4f#/	.	4dd\	.	.	.	.	.	4r	.	4r	.	.	.	.	.
8r	.	8f#/	.	8dd\	.	.	.	.	.	8d\	o-	8dd\	O-	.	.	.	.
=105	=105	=105	=105	=105	=105	=105	=105	=105	=105	=105	=105	=105	=105	=105	=105	=105	=105
!	!	!	!	!	!	!	!	!LO:LB:g=original	!	!	!	!	!	!	!	!	!
4G\	.	8.G/L	.	8.b\L	.	4G\	O-	4B\	O-	8g\	-ra	8b\	-ra	2.ryy	2.ryy	2.ryy	2.ryy
.	.	.	.	.	.	.	.	.	.	8r	.	8r	.	.	.	.	.
.	.	16B/K	.	16g\K	.	.	.	.	.	.	.	.	.	.	.	.	.
*	*	*	*	*	*	*	*	*	*	*	*	*	*ij	*	*	*	*
8r	.	8d/J	.	8dd\J	.	8r	.	8r	.	8d\	o-	8dd\	o-	.	.	.	.
!	!	!	!	!	!	!	!	!	!	!LO:LB:g=original	!	!	!	!	!	!	!
4F#\	x 6	8.f#/L	.	8.a\L	.	4F#\	-ra	4A\	-ra	8a\	-ra	8a\	-ra	.	.	.	.
*	*	*	*	*	*	*	*	*	*	*	*ij	*	*Xij	*	*	*	*
.	.	.	.	.	.	.	.	.	.	8r	.	8r	.	.	.	.	.
.	.	16A/K	.	16f#\K	.	.	.	.	.	.	.	.	.	.	.	.	.
8r	.	8d/J	.	8dd\J	.	8r	.	8r	.	8d\	o-	8dd\	O-	.	.	.	.
=106	=106	=106	=106	=106	=106	=106	=106	=106	=106	=106	=106	=106	=106	=106	=106	=106	=106
!	!	!	!	!	!	!LO:LB:g=original	!	!	!	!	!	!LO:LB:g=original	!	!	!	!	!
4G\	.	8.G/L	.	8.b\L	.	4G\	O-	4B\	o-	8g\	-ra	8b\	-ra	2.ryy	2.ryy	2.ryy	2.ryy
*	*	*	*	*	*	*	*	*	*	*	*Xij	*	*	*	*	*	*
.	.	.	.	.	.	.	.	.	.	8r	.	8r	.	.	.	.	.
.	.	16B/K	.	16g\K	.	.	.	.	.	.	.	.	.	.	.	.	.
8r	.	8d/J	.	8dd\J	.	8r	.	8r	.	8d\	o-	8dd\	o-	.	.	.	.
4F#\	x 6	4f#/	.	4a\	.	4F#\	-ra	4A\	-ra	8a\	-ra	4a\	-ra	.	.	.	.
.	.	.	.	.	.	.	.	.	.	8r	.	.	.	.	.	.	.
8r	.	8d/	.	8dd\	.	8r	.	8r	.	8r	.	8dd\	o-	.	.	.	.
=107	=107	=107	=107	=107	=107	=107	=107	=107	=107	=107	=107	=107	=107	=107	=107	=107	=107
!	!	!	!	!LO:LB:g=original	!	!	!	!	!	!	!	!	!	!	!	!	!
8G\L	.	8.g/L	.	8.b\L	.	8G\	O-	8B\	o-	8.g\	o-	8.b\L	.	2.ryy	2.ryy	2.ryy	2.ryy
8G\	.	.	.	.	.	8G\	-ra	8B\	-ra	.	.	.	.	.	.	.	.
.	.	16b/K	.	16gg\K	.	.	.	.	.	16b\	-ra	16gg\Jk	.	.	.	.	.
8G\J	.	8a/J	.	8ff#\J	.	8G\	pro	8B\	pro	8a\	pro	8ff#\	-ra	.	.	.	.
!LO:TX:t=P:problem=mixed beam	!	!	!	!	!	!	!	!	!	!	!	!	!	!	!	!	!
8A\L	.	8g/L	.	8ee\L	.	4A\	no-	4.A\	no-	8g\L	no-	8ee\	pro	.	.	.	.
8A\	x 4	8f#/	.	8dd\	.	.	.	.	.	8f#\J	.	8dd\L	no-	.	.	.	.
8AA/J	x 3	8e/J	.	8cc#\J	.	8AA/	.	.	.	8e\	-bis	8cc#\J	.	.	.	.	.
=108	=108	=108	=108	=108	=108	=108	=108	=108	=108	=108	=108	=108	=108	=108	=108	=108	=108
!	!	!LO:LB:g=original	!	!	!	!	!	!	!	!	!	!	!	!	!	!	!
!	!	!LO:TX:t=P:problem=mixed beam	!	!	!	!	!	!	!	!	!	!	!	!	!	!	!
4D\	.	8.f#/L	.	8.dd\L	.	4D\	-bis	8A\	-bis	8.f#\	o-	8.dd\	-bis	2.ryy	2.ryy	2.ryy	2.ryy
.	.	.	.	.	.	.	.	8r	.	.	.	.	.	.	.	.	.
.	.	16gg\K	.	16bb\K	.	.	.	.	.	16b\	-ra	16gg\	o-	.	.	.	.
8r	.	8ff#\J	.	8aa\J	.	8r	.	8r	.	8a\	pro	8ff#\	-ra	.	.	.	.
4G\	6 5	8ee\L	.	8gg\L	.	8G\	pro	8B\	pro	8g\L	no-	8ee\	pro	.	.	.	.
.	.	8dd\	.	8ff#\	.	8E\L	no-	8B\L	no-	8f#\J	.	8dd\L	no-	.	.	.	.
8A\	.	8cc#\J	.	8ee\J	.	8A\J	.	8A\J	.	8e\	-bis	8cc#\J	.	.	.	.	.
=109	=109	=109	=109	=109	=109	=109	=109	=109	=109	=109	=109	=109	=109	=109	=109	=109	=109
!	!	!	!	!	!	!	!	!	!	!LO:LB:g=original	!	!	!	!	!	!	!
4D\	.	8.a\L	.	8.ff#\L	.	4D\	-bis	4A\	-bis	8.f#\	o-	8.dd\	-bis	2.ryy	2.ryy	2.ryy	2.ryy
.	.	16b\K	.	16gg\K	.	.	.	.	.	16b\	-ra	16gg\	o-	.	.	.	.
8r	.	8a\J	.	8ff#\J	.	8r	.	8r	.	8a\	pro	8ff#\	-ra	.	.	.	.
!	!	!	!	!	!	!	!	!	!	!	!	!LO:LB:g=original	!	!	!	!	!
4G\	6 5	8g/L	.	8ee\L	.	8G\	pro	8B\	pro	8g\L	no-	8ee\	pro	.	.	.	.
.	.	8f#/	.	8dd\	.	8E\L	no-	8B\L	no-	8f#\	.	8dd\L	no-	.	.	.	.
8A\	x 7	8e/J	.	8cc#\J	.	8A\J	.	8A\J	.	8e\J	.	8cc#\J	.	.	.	.	.
=110	=110	=110	=110	=110	=110	=110	=110	=110	=110	=110	=110	=110	=110	=110	=110	=110	=110
8D\L	.	8f#/L	.	8dd\L	.	4D\	-bis	4A\	-bis.	4f#\	-bis:	4dd\	-bis:	2.ryy	2.ryy	2.ryy	2.ryy
8D\	.	8a/	.	8a\	.	.	.	.	.	.	.	.	.	.	.	.	.
8D\J	.	8f#/J	.	8f#\J	.	8r	.	8r	.	8r	.	8r	.	.	.	.	.
4D\	.	4d/	.	4d/	.	4r	.	4r	.	4r	.	4r	.	.	.	.	.
8r	.	8r	.	8r	.	8r	.	8r	.	8r	.	8r	.	.	.	.	.
!LO:TX:t=V&colon; Agnus.:b	!	!LO:TX:t=V&colon; Agnus.:b	!	!	!	!	!	!	!	!	!	!LO:TX:t=V&colon; Agnus:b	!	!LO:TX:t=V&colon; Agnus.:b	!LO:TX:t=V&colon; Agnus.:b	!	!
==	==	==	==	==	==	==	==	==	==	==	==	==	==	==	==	==	==
*-	*-	*-	*-	*-	*-	*-	*-	*-	*-	*-	*-	*-	*-	*-	*-	*-	*-
!!!system-decoration: [(s1,s2)][(s3,s4)][(s5,s6,s7,s8)][(s9,s10)](s11)
!!!ENC: Solarz Mateusz
!!!END: 2020-09-17
!!!ENC: Krzysztof Stępień
!!!END: 2022-01-29
!!!RDF**kern: | = vertical stroke
!!!RDF**kern: > = above
!!!RDF**kern: < = below
